; generated by Slic3r 1.3.0-dev on 2018-07-22 at 16:23:27

; external perimeters extrusion width = 0.44mm (2.38mm^3/s)
; perimeters extrusion width = 0.56mm (6.20mm^3/s)
; infill extrusion width = 0.50mm (6.40mm^3/s)
; solid infill extrusion width = 0.56mm (6.20mm^3/s)
; top infill extrusion width = 0.56mm (3.10mm^3/s)

M190 S70 ; set bed temperature and wait for it to be reached
M104 S219 ; set temperature
G28 ; home all axes
G1 Z5 F5000 ; lift nozzle
G1 X0 Y0 F5000 ;

; Filament gcode

; Filament gcode

M109 S219 ; set temperature and wait for it to be reached
G21 ; set units to millimeters
G90 ; use absolute coordinates
M82 ; use absolute distances for extrusion
G92 E0 ; reset extrusion distance
M106 S255 ; enable fan
;LAYER:
G1 E-1.00000 F1800.00000 ; retract extruder 0
G92 E0 ; reset extrusion distance
G1 Z0.200 F6600.000 ; move to next layer (0)
G1 X12.890 Y16.792 F6600.000 ; move to first skirt point
G1 E1.00000 F1800.00000 ; unretract extruder 0
G1 F2100
G1 X13.647 Y16.200 E1.02796 ; skirt
G1 X14.319 Y15.778 E1.05103 ; skirt
G1 X15.336 Y15.288 E1.08388 ; skirt
G1 X16.084 Y15.026 E1.10694 ; skirt
G1 X17.018 Y14.803 E1.13489 ; skirt
G1 X17.973 Y14.686 E1.16287 ; skirt
G1 X18.537 Y14.666 E1.17931 ; skirt
G1 X57.095 Y14.666 E2.30125 ; skirt
G1 X57.659 Y14.686 E2.31768 ; skirt
G1 X58.447 Y14.775 E2.34075 ; skirt
G1 X59.386 Y14.980 E2.36870 ; skirt
G1 X60.303 Y15.291 E2.39688 ; skirt
G1 X61.314 Y15.778 E2.42952 ; skirt
G1 X62.122 Y16.297 E2.45749 ; skirt
G1 X62.867 Y16.904 E2.48544 ; skirt
G1 X63.540 Y17.590 E2.51341 ; skirt
G1 X64.132 Y18.347 E2.54137 ; skirt
G1 X64.635 Y19.166 E2.56933 ; skirt
G1 X65.044 Y20.036 E2.59730 ; skirt
G1 X65.306 Y20.784 E2.62037 ; skirt
G1 X65.529 Y21.719 E2.64833 ; skirt
G1 X65.646 Y22.673 E2.67629 ; skirt
G1 X65.666 Y23.237 E2.69273 ; skirt
G1 X65.655 Y43.634 E3.28621 ; skirt
G1 X65.555 Y44.598 E3.31442 ; skirt
G1 X65.306 Y45.690 E3.34702 ; skirt
G1 X64.979 Y46.594 E3.37498 ; skirt
G1 X64.554 Y47.455 E3.40294 ; skirt
G1 X64.035 Y48.264 E3.43091 ; skirt
G1 X63.428 Y49.010 E3.45887 ; skirt
G1 X62.742 Y49.683 E3.48684 ; skirt
G1 X61.985 Y50.274 E3.51478 ; skirt
G1 X61.314 Y50.696 E3.53787 ; skirt
G1 X60.452 Y51.122 E3.56583 ; skirt
G1 X59.549 Y51.448 E3.59377 ; skirt
G1 X58.613 Y51.671 E3.62175 ; skirt
G1 X57.659 Y51.788 E3.64971 ; skirt
G1 X57.095 Y51.808 E3.66615 ; skirt
G1 X18.537 Y51.808 E4.78808 ; skirt
G1 X17.973 Y51.788 E4.80451 ; skirt
G1 X17.185 Y51.699 E4.82759 ; skirt
G1 X16.246 Y51.494 E4.85554 ; skirt
G1 X15.180 Y51.122 E4.88839 ; skirt
G1 X14.319 Y50.696 E4.91636 ; skirt
G1 X13.647 Y50.274 E4.93944 ; skirt
G1 X12.890 Y49.682 E4.96739 ; skirt
G1 X12.204 Y49.010 E4.99536 ; skirt
G1 X11.597 Y48.264 E5.02332 ; skirt
G1 X11.078 Y47.455 E5.05128 ; skirt
G1 X10.650 Y46.587 E5.07947 ; skirt
G1 X10.280 Y45.528 E5.11209 ; skirt
G1 X10.075 Y44.589 E5.14005 ; skirt
G1 X9.977 Y43.633 E5.16803 ; skirt
G1 X9.966 Y23.237 E5.76150 ; skirt
G1 X9.986 Y22.673 E5.77793 ; skirt
G1 X10.103 Y21.719 E5.80590 ; skirt
G1 X10.282 Y20.938 E5.82921 ; skirt
G1 X10.588 Y20.036 E5.85691 ; skirt
G1 X10.997 Y19.166 E5.88488 ; skirt
G1 X11.597 Y18.210 E5.91774 ; skirt
G1 X12.204 Y17.465 E5.94570 ; skirt
G1 X12.845 Y16.832 E5.97192 ; skirt
G1 X13.128 Y17.058 F6600.000 ; move to first skirt point
G1 F2100
G1 X13.717 Y16.588 E5.99383 ; skirt
G1 X14.491 Y16.091 E6.02062 ; skirt
G1 X15.472 Y15.618 E6.05231 ; skirt
G1 X16.191 Y15.367 E6.07445 ; skirt
G1 X17.078 Y15.155 E6.10099 ; skirt
G1 X17.993 Y15.043 E6.12780 ; skirt
G1 X18.537 Y15.023 E6.14366 ; skirt
G1 X57.095 Y15.023 E7.26560 ; skirt
G1 X57.639 Y15.043 E7.28145 ; skirt
G1 X58.388 Y15.127 E7.30336 ; skirt
G1 X59.287 Y15.323 E7.33014 ; skirt
G1 X60.166 Y15.621 E7.35716 ; skirt
G1 X61.141 Y16.091 E7.38863 ; skirt
G1 X61.916 Y16.589 E7.41543 ; skirt
G1 X62.629 Y17.170 E7.44222 ; skirt
G1 X63.274 Y17.828 E7.46902 ; skirt
G1 X63.841 Y18.554 E7.49582 ; skirt
G1 X64.323 Y19.339 E7.52262 ; skirt
G1 X64.714 Y20.172 E7.54941 ; skirt
G1 X64.963 Y20.883 E7.57132 ; skirt
G1 X65.177 Y21.778 E7.59811 ; skirt
G1 X65.289 Y22.693 E7.62491 ; skirt
G1 X65.309 Y23.237 E7.64076 ; skirt
G1 X65.299 Y43.614 E8.23367 ; skirt
G1 X65.204 Y44.537 E8.26069 ; skirt
G1 X64.963 Y45.591 E8.29214 ; skirt
G1 X64.650 Y46.457 E8.31894 ; skirt
G1 X64.242 Y47.283 E8.34574 ; skirt
G1 X63.743 Y48.058 E8.37254 ; skirt
G1 X63.162 Y48.772 E8.39933 ; skirt
G1 X62.504 Y49.416 E8.42614 ; skirt
G1 X61.779 Y49.983 E8.45292 ; skirt
G1 X61.141 Y50.384 E8.47483 ; skirt
G1 X60.315 Y50.792 E8.50164 ; skirt
G1 X59.450 Y51.104 E8.52841 ; skirt
G1 X58.553 Y51.319 E8.55523 ; skirt
G1 X57.639 Y51.431 E8.58202 ; skirt
G1 X57.095 Y51.451 E8.59787 ; skirt
G1 X18.537 Y51.451 E9.71981 ; skirt
G1 X17.993 Y51.431 E9.73566 ; skirt
G1 X17.245 Y51.347 E9.75757 ; skirt
G1 X16.345 Y51.151 E9.78436 ; skirt
G1 X15.317 Y50.792 E9.81604 ; skirt
G1 X14.491 Y50.383 E9.84285 ; skirt
G1 X13.854 Y49.983 E9.86476 ; skirt
G1 X13.128 Y49.416 E9.89154 ; skirt
G1 X12.470 Y48.772 E9.91835 ; skirt
G1 X11.889 Y48.058 E9.94514 ; skirt
G1 X11.391 Y47.283 E9.97194 ; skirt
G1 X10.980 Y46.450 E9.99897 ; skirt
G1 X10.623 Y45.430 E10.03042 ; skirt
G1 X10.427 Y44.530 E10.05721 ; skirt
G1 X10.334 Y43.613 E10.08403 ; skirt
G1 X10.323 Y23.237 E10.67691 ; skirt
G1 X10.343 Y22.693 E10.69277 ; skirt
G1 X10.429 Y21.937 E10.71490 ; skirt
G1 X10.623 Y21.045 E10.74146 ; skirt
G1 X10.918 Y20.173 E10.76825 ; skirt
G1 X11.309 Y19.339 E10.79505 ; skirt
G1 X11.889 Y18.416 E10.82675 ; skirt
G1 X12.470 Y17.702 E10.85354 ; skirt
G1 X13.083 Y17.098 E10.87860 ; skirt
G1 X13.366 Y17.324 F6600.000 ; move to first skirt point
G1 F2100
G1 X14.060 Y16.782 E10.90423 ; skirt
G1 X14.664 Y16.403 E10.92497 ; skirt
G1 X15.609 Y15.948 E10.95549 ; skirt
G1 X16.290 Y15.710 E10.97648 ; skirt
G1 X17.138 Y15.507 E11.00184 ; skirt
G1 X18.013 Y15.399 E11.02749 ; skirt
G1 X18.537 Y15.380 E11.04276 ; skirt
G1 X57.095 Y15.380 E12.16470 ; skirt
G1 X57.619 Y15.399 E12.17997 ; skirt
G1 X58.328 Y15.479 E12.20071 ; skirt
G1 X59.188 Y15.666 E12.22633 ; skirt
G1 X60.030 Y15.951 E12.25218 ; skirt
G1 X60.968 Y16.403 E12.28249 ; skirt
G1 X61.709 Y16.880 E12.30812 ; skirt
G1 X62.392 Y17.436 E12.33375 ; skirt
G1 X63.008 Y18.066 E12.35938 ; skirt
G1 X63.550 Y18.760 E12.38502 ; skirt
G1 X64.010 Y19.511 E12.41065 ; skirt
G1 X64.384 Y20.309 E12.43628 ; skirt
G1 X64.619 Y20.982 E12.45703 ; skirt
G1 X64.825 Y21.838 E12.48265 ; skirt
G1 X64.933 Y22.713 E12.50829 ; skirt
G1 X64.952 Y23.237 E12.52355 ; skirt
G1 X64.942 Y43.593 E13.11588 ; skirt
G1 X64.851 Y44.478 E13.14176 ; skirt
G1 X64.619 Y45.492 E13.17202 ; skirt
G1 X64.320 Y46.321 E13.19766 ; skirt
G1 X63.929 Y47.110 E13.22328 ; skirt
G1 X63.452 Y47.851 E13.24892 ; skirt
G1 X62.896 Y48.534 E13.27455 ; skirt
G1 X62.392 Y49.038 E13.29530 ; skirt
G1 X61.709 Y49.594 E13.32092 ; skirt
G1 X60.968 Y50.071 E13.34656 ; skirt
G1 X60.178 Y50.462 E13.37219 ; skirt
G1 X59.351 Y50.761 E13.39780 ; skirt
G1 X58.494 Y50.967 E13.42345 ; skirt
G1 X57.619 Y51.075 E13.44908 ; skirt
G1 X57.095 Y51.094 E13.46435 ; skirt
G1 X18.537 Y51.094 E14.58629 ; skirt
G1 X18.013 Y51.075 E14.60155 ; skirt
G1 X17.304 Y50.995 E14.62230 ; skirt
G1 X16.444 Y50.808 E14.64792 ; skirt
G1 X15.454 Y50.462 E14.67844 ; skirt
G1 X14.664 Y50.071 E14.70408 ; skirt
G1 X14.060 Y49.692 E14.72483 ; skirt
G1 X13.366 Y49.150 E14.75045 ; skirt
G1 X12.736 Y48.534 E14.77609 ; skirt
G1 X12.180 Y47.851 E14.80171 ; skirt
G1 X11.703 Y47.110 E14.82735 ; skirt
G1 X11.309 Y46.313 E14.85321 ; skirt
G1 X10.966 Y45.331 E14.88350 ; skirt
G1 X10.779 Y44.470 E14.90913 ; skirt
G1 X10.690 Y43.593 E14.93477 ; skirt
G1 X10.680 Y23.237 E15.52708 ; skirt
G1 X10.700 Y22.713 E15.54235 ; skirt
G1 X10.808 Y21.838 E15.56798 ; skirt
G1 X10.968 Y21.136 E15.58895 ; skirt
G1 X11.248 Y20.310 E15.61434 ; skirt
G1 X11.622 Y19.512 E15.63997 ; skirt
G1 X12.180 Y18.623 E15.67050 ; skirt
G1 X12.736 Y17.940 E15.69613 ; skirt
G1 X13.321 Y17.364 E15.72003 ; skirt
G1 E14.72003 F1800.00000 ; retract extruder 0
G92 E0 ; reset extrusion distance
G1 X50.826 Y25.675 F6600.000 ; move to first perimeter point
G1 E1.00000 F1800.00000 ; unretract extruder 0
G1 F900
G1 X50.925 Y25.426 E1.00781 ; perimeter
G1 X51.147 Y25.055 E1.02039 ; perimeter
G1 X51.321 Y24.850 E1.02820 ; perimeter
G1 X51.666 Y24.557 E1.04136 ; perimeter
G1 X52.060 Y24.347 E1.05437 ; perimeter
G1 X52.314 Y24.261 E1.06218 ; perimeter
G1 X52.761 Y24.188 E1.07535 ; perimeter
G1 X53.228 Y24.213 E1.08894 ; perimeter
G1 X53.678 Y24.338 E1.10254 ; perimeter
G1 X54.090 Y24.557 E1.11613 ; perimeter
G1 X54.446 Y24.859 E1.12972 ; perimeter
G1 X54.729 Y25.231 E1.14332 ; perimeter
G1 X54.925 Y25.655 E1.15690 ; perimeter
G1 X55.022 Y26.091 E1.16991 ; perimeter
G1 X55.035 Y26.329 E1.17684 ; perimeter
G1 X55.026 Y38.629 E1.53473 ; perimeter
G1 X54.929 Y39.070 E1.54787 ; perimeter
G1 X54.831 Y39.315 E1.55555 ; perimeter
G1 X54.609 Y39.685 E1.56811 ; perimeter
G1 X54.435 Y39.890 E1.57592 ; perimeter
G1 X54.102 Y40.173 E1.58865 ; perimeter
G1 X53.876 Y40.310 E1.59633 ; perimeter
G1 X53.456 Y40.477 E1.60948 ; perimeter
G1 X52.995 Y40.552 E1.62307 ; perimeter
G1 X52.529 Y40.527 E1.63666 ; perimeter
G1 X52.078 Y40.402 E1.65026 ; perimeter
G1 X51.666 Y40.183 E1.66385 ; perimeter
G1 X51.310 Y39.881 E1.67744 ; perimeter
G1 X51.027 Y39.509 E1.69104 ; perimeter
G1 X50.837 Y39.099 E1.70419 ; perimeter
G1 X50.767 Y38.845 E1.71187 ; perimeter
G1 X50.721 Y38.425 E1.72414 ; perimeter
G1 X50.730 Y26.111 E2.08244 ; perimeter
G1 X50.813 Y25.734 E2.09369 ; perimeter
G1 X51.162 Y25.810 F6600.000 ; move to first perimeter point
G1 F900
G1 X51.246 Y25.584 E2.10070 ; perimeter
G1 X51.439 Y25.264 E2.11159 ; perimeter
G1 X51.574 Y25.103 E2.11771 ; perimeter
G1 X51.867 Y24.854 E2.12889 ; perimeter
G1 X52.202 Y24.676 E2.13993 ; perimeter
G1 X52.401 Y24.609 E2.14604 ; perimeter
G1 X52.781 Y24.546 E2.15723 ; perimeter
G1 X53.169 Y24.568 E2.16856 ; perimeter
G1 X53.545 Y24.672 E2.17989 ; perimeter
G1 X53.889 Y24.854 E2.19123 ; perimeter
G1 X54.186 Y25.106 E2.20256 ; perimeter
G1 X54.421 Y25.416 E2.21389 ; perimeter
G1 X54.585 Y25.770 E2.22522 ; perimeter
G1 X54.667 Y26.140 E2.23626 ; perimeter
G1 X54.669 Y38.590 E2.59852 ; perimeter
G1 X54.586 Y38.965 E2.60969 ; perimeter
G1 X54.510 Y39.156 E2.61568 ; perimeter
G1 X54.317 Y39.477 E2.62656 ; perimeter
G1 X54.182 Y39.637 E2.63267 ; perimeter
G1 X53.893 Y39.883 E2.64370 ; perimeter
G1 X53.717 Y39.989 E2.64968 ; perimeter
G1 X53.360 Y40.131 E2.66086 ; perimeter
G1 X52.976 Y40.194 E2.67219 ; perimeter
G1 X52.587 Y40.173 E2.68352 ; perimeter
G1 X52.211 Y40.068 E2.69486 ; perimeter
G1 X51.867 Y39.886 E2.70619 ; perimeter
G1 X51.570 Y39.634 E2.71752 ; perimeter
G1 X51.335 Y39.324 E2.72886 ; perimeter
G1 X51.173 Y38.975 E2.74003 ; perimeter
G1 X51.118 Y38.777 E2.74602 ; perimeter
G1 X51.078 Y38.406 E2.75688 ; perimeter
G1 X51.087 Y26.150 E3.11349 ; perimeter
G1 X51.149 Y25.869 E3.12187 ; perimeter
G1 X51.138 Y25.791 F6600.000 ; move inwards before travel
G1 E2.12187 F1800.00000 ; retract extruder 0
G92 E0 ; reset extrusion distance
G1 X39.835 Y26.315 F6600.000 ; move to first perimeter point
G1 E1.00000 F1800.00000 ; unretract extruder 0
G1 F900
G1 X39.826 Y38.629 E1.35831 ; perimeter
G1 X39.725 Y39.085 E1.37189 ; perimeter
G1 X39.529 Y39.509 E1.38548 ; perimeter
G1 X39.259 Y39.865 E1.39848 ; perimeter
G1 X39.065 Y40.050 E1.40629 ; perimeter
G1 X38.707 Y40.293 E1.41887 ; perimeter
G1 X38.464 Y40.406 E1.42668 ; perimeter
G1 X38.042 Y40.523 E1.43941 ; perimeter
G1 X37.780 Y40.552 E1.44709 ; perimeter
G1 X37.329 Y40.527 E1.46024 ; perimeter
G1 X36.878 Y40.402 E1.47383 ; perimeter
G1 X36.466 Y40.183 E1.48743 ; perimeter
G1 X36.110 Y39.881 E1.50102 ; perimeter
G1 X35.827 Y39.509 E1.51461 ; perimeter
G1 X35.631 Y39.085 E1.52820 ; perimeter
G1 X35.535 Y38.649 E1.54120 ; perimeter
G1 X35.521 Y38.411 E1.54813 ; perimeter
G1 X35.521 Y28.802 E1.82773 ; perimeter
G1 X35.480 Y28.802 E1.82892 ; perimeter
G1 X35.480 Y25.788 E1.91662 ; perimeter
G1 X35.599 Y25.788 E1.92010 ; perimeter
G1 X35.715 Y25.444 E1.93067 ; perimeter
G1 X35.886 Y25.146 E1.94064 ; perimeter
G1 X36.103 Y24.869 E1.95091 ; perimeter
G1 X36.292 Y24.690 E1.95847 ; perimeter
G1 X36.666 Y24.436 E1.97162 ; perimeter
G1 X37.100 Y24.263 E1.98521 ; perimeter
G1 X37.561 Y24.188 E1.99880 ; perimeter
G1 X38.028 Y24.213 E2.01239 ; perimeter
G1 X38.478 Y24.338 E2.02599 ; perimeter
G1 X38.890 Y24.557 E2.03958 ; perimeter
G1 X39.246 Y24.859 E2.05317 ; perimeter
G1 X39.520 Y25.219 E2.06632 ; perimeter
G1 X39.644 Y25.452 E2.07400 ; perimeter
G1 X39.788 Y25.881 E2.08715 ; perimeter
G1 X39.829 Y26.255 E2.09812 ; perimeter
G1 X39.474 Y26.294 F6600.000 ; move to first perimeter point
G1 F900
G1 X39.469 Y38.590 E2.45591 ; perimeter
G1 X39.385 Y38.970 E2.46724 ; perimeter
G1 X39.221 Y39.324 E2.47857 ; perimeter
G1 X38.992 Y39.626 E2.48961 ; perimeter
G1 X38.840 Y39.771 E2.49572 ; perimeter
G1 X38.530 Y39.981 E2.50661 ; perimeter
G1 X38.340 Y40.070 E2.51273 ; perimeter
G1 X37.975 Y40.171 E2.52375 ; perimeter
G1 X37.770 Y40.193 E2.52974 ; perimeter
G1 X37.387 Y40.173 E2.54091 ; perimeter
G1 X37.011 Y40.068 E2.55225 ; perimeter
G1 X36.667 Y39.886 E2.56358 ; perimeter
G1 X36.370 Y39.634 E2.57491 ; perimeter
G1 X36.135 Y39.324 E2.58625 ; perimeter
G1 X35.971 Y38.970 E2.59758 ; perimeter
G1 X35.889 Y38.600 E2.60862 ; perimeter
G1 X35.878 Y28.445 E2.90410 ; perimeter
G1 X35.837 Y28.445 E2.90529 ; perimeter
G1 X35.837 Y26.145 E2.97221 ; perimeter
G1 X35.899 Y26.145 E2.97400 ; perimeter
G1 X35.919 Y25.958 E2.97948 ; perimeter
G1 X36.043 Y25.591 E2.99075 ; perimeter
G1 X36.183 Y25.346 E2.99895 ; perimeter
G1 X36.368 Y25.110 E3.00770 ; perimeter
G1 X36.517 Y24.969 E3.01364 ; perimeter
G1 X36.834 Y24.754 E3.02482 ; perimeter
G1 X37.196 Y24.610 E3.03615 ; perimeter
G1 X37.581 Y24.546 E3.04748 ; perimeter
G1 X37.969 Y24.568 E3.05882 ; perimeter
G1 X38.345 Y24.672 E3.07015 ; perimeter
G1 X38.689 Y24.854 E3.08148 ; perimeter
G1 X38.986 Y25.106 E3.09281 ; perimeter
G1 X39.218 Y25.412 E3.10399 ; perimeter
G1 X39.315 Y25.594 E3.10998 ; perimeter
G1 X39.437 Y25.958 E3.12115 ; perimeter
G1 X39.467 Y26.234 E3.12924 ; perimeter
G1 X39.511 Y26.309 F6600.000 ; move inwards before travel
G1 E2.12924 F1800.00000 ; retract extruder 0
G92 E0 ; reset extrusion distance
G1 X24.635 Y26.315 F6600.000 ; move to first perimeter point
G1 E1.00000 F1800.00000 ; unretract extruder 0
G1 F900
G1 X24.626 Y38.629 E1.35831 ; perimeter
G1 X24.525 Y39.085 E1.37189 ; perimeter
G1 X24.336 Y39.495 E1.38504 ; perimeter
G1 X24.187 Y39.714 E1.39272 ; perimeter
G1 X23.877 Y40.042 E1.40587 ; perimeter
G1 X23.507 Y40.293 E1.41887 ; perimeter
G1 X23.264 Y40.406 E1.42668 ; perimeter
G1 X22.842 Y40.523 E1.43941 ; perimeter
G1 X22.580 Y40.552 E1.44709 ; perimeter
G1 X22.129 Y40.527 E1.46024 ; perimeter
G1 X21.693 Y40.406 E1.47339 ; perimeter
G1 X21.454 Y40.295 E1.48107 ; perimeter
G1 X21.079 Y40.042 E1.49422 ; perimeter
G1 X20.758 Y39.703 E1.50781 ; perimeter
G1 X20.517 Y39.302 E1.52141 ; perimeter
G1 X20.368 Y38.860 E1.53500 ; perimeter
G1 X20.321 Y38.425 E1.54772 ; perimeter
G1 X20.330 Y26.111 E1.90602 ; perimeter
G1 X20.431 Y25.655 E1.91961 ; perimeter
G1 X20.621 Y25.245 E1.93276 ; perimeter
G1 X20.769 Y25.027 E1.94044 ; perimeter
G1 X21.079 Y24.698 E1.95359 ; perimeter
G1 X21.454 Y24.445 E1.96674 ; perimeter
G1 X21.693 Y24.334 E1.97442 ; perimeter
G1 X22.114 Y24.217 E1.98713 ; perimeter
G1 X22.376 Y24.189 E1.99481 ; perimeter
G1 X22.828 Y24.213 E2.00796 ; perimeter
G1 X23.263 Y24.334 E2.02111 ; perimeter
G1 X23.503 Y24.445 E2.02879 ; perimeter
G1 X23.877 Y24.698 E2.04194 ; perimeter
G1 X24.198 Y25.038 E2.05553 ; perimeter
G1 X24.439 Y25.438 E2.06912 ; perimeter
G1 X24.588 Y25.881 E2.08272 ; perimeter
G1 X24.629 Y26.255 E2.09369 ; perimeter
G1 X24.274 Y26.294 F6600.000 ; move to first perimeter point
G1 F900
G1 X24.269 Y38.590 E2.45147 ; perimeter
G1 X24.185 Y38.970 E2.46280 ; perimeter
G1 X24.024 Y39.319 E2.47397 ; perimeter
G1 X23.908 Y39.489 E2.47996 ; perimeter
G1 X23.644 Y39.768 E2.49114 ; perimeter
G1 X23.330 Y39.981 E2.50218 ; perimeter
G1 X23.140 Y40.070 E2.50829 ; perimeter
