; generated by Slic3r 1.3.0-dev on 2018-07-22 at 17:32:25

; external perimeters extrusion width = 0.44mm (2.38mm^3/s)
; perimeters extrusion width = 0.56mm (6.20mm^3/s)
; infill extrusion width = 0.50mm (6.40mm^3/s)
; solid infill extrusion width = 0.56mm (6.20mm^3/s)
; top infill extrusion width = 0.56mm (3.10mm^3/s)

M190 S70 ; set bed temperature and wait for it to be reached
M104 S219 ; set temperature
G28 ; home all axes
G1 Z5 F5000 ; lift nozzle
G1 X0 Y0 F5000 ;

; Filament gcode

; Filament gcode

M109 S219 ; set temperature and wait for it to be reached
G21 ; set units to millimeters
G90 ; use absolute coordinates
M82 ; use absolute distances for extrusion
G92 E0 ; reset extrusion distance
M106 S255 ; enable fan
;LAYER:
G1 E-1.00000 F1800.00000 ; retract extruder 0
G92 E0 ; reset extrusion distance
G1 Z0.200 F6600.000 ; move to next layer (0)
G1 X10.191 Y9.894 F6600.000 ; move to first skirt point
G1 E1.00000 F1800.00000 ; unretract extruder 0
G1 F2100
G1 X11.958 Y8.315 E1.06896 ; skirt
G1 X14.149 Y7.409 E1.13792 ; skirt
G1 X15.718 Y7.233 E1.18387 ; skirt
G1 X57.276 Y7.233 E2.39310 ; skirt
G1 X59.612 Y7.630 E2.46206 ; skirt
G1 X61.686 Y8.777 E2.53102 ; skirt
G1 X63.265 Y10.545 E2.59998 ; skirt
G1 X64.171 Y12.735 E2.66895 ; skirt
G1 X64.347 Y14.304 E2.71490 ; skirt
G1 X64.347 Y45.519 E3.62316 ; skirt
G1 X63.950 Y47.855 E3.69212 ; skirt
G1 X62.803 Y49.929 E3.76109 ; skirt
G1 X61.035 Y51.508 E3.83005 ; skirt
G1 X58.845 Y52.414 E3.89901 ; skirt
G1 X57.276 Y52.590 E3.94496 ; skirt
G1 X15.718 Y52.590 E5.15419 ; skirt
G1 X13.381 Y52.193 E5.22315 ; skirt
G1 X11.307 Y51.046 E5.29211 ; skirt
G1 X9.729 Y49.278 E5.36107 ; skirt
G1 X8.823 Y47.088 E5.43003 ; skirt
G1 X8.647 Y45.519 E5.47598 ; skirt
G1 X8.647 Y14.304 E6.38425 ; skirt
G1 X9.044 Y11.968 E6.45321 ; skirt
G1 X10.162 Y9.946 E6.52043 ; skirt
G1 X10.545 Y10.024 F6600.000 ; move to first skirt point
G1 F2100
G1 X12.301 Y8.525 E6.58761 ; skirt
G1 X14.461 Y7.709 E6.65480 ; skirt
G1 X15.718 Y7.590 E6.69154 ; skirt
G1 X57.276 Y7.590 E7.90077 ; skirt
G1 X59.550 Y7.987 E7.96795 ; skirt
G1 X61.556 Y9.131 E8.03514 ; skirt
G1 X63.055 Y10.887 E8.10232 ; skirt
G1 X63.871 Y13.047 E8.16951 ; skirt
G1 X63.990 Y14.304 E8.20625 ; skirt
G1 X63.990 Y45.519 E9.11452 ; skirt
G1 X63.593 Y47.793 E9.18170 ; skirt
G1 X62.449 Y49.799 E9.24889 ; skirt
G1 X60.693 Y51.298 E9.31607 ; skirt
G1 X58.533 Y52.114 E9.38326 ; skirt
G1 X57.276 Y52.233 E9.42000 ; skirt
G1 X15.718 Y52.233 E10.62923 ; skirt
G1 X13.443 Y51.836 E10.69641 ; skirt
G1 X11.438 Y50.692 E10.76360 ; skirt
G1 X9.938 Y48.936 E10.83078 ; skirt
G1 X9.122 Y46.776 E10.89797 ; skirt
G1 X9.004 Y45.519 E10.93471 ; skirt
G1 X9.004 Y14.304 E11.84297 ; skirt
G1 X9.401 Y12.030 E11.91016 ; skirt
G1 X10.515 Y10.076 E11.97560 ; skirt
G1 X10.899 Y10.158 F6600.000 ; move to first skirt point
G1 F2100
G1 X12.641 Y8.741 E12.04096 ; skirt
G1 X15.718 Y7.947 E12.13341 ; skirt
G1 X57.276 Y7.947 E13.34264 ; skirt
G1 X59.487 Y8.344 E13.40800 ; skirt
G1 X61.421 Y9.485 E13.47336 ; skirt
G1 X62.839 Y11.228 E13.53872 ; skirt
G1 X63.633 Y14.304 E13.63117 ; skirt
G1 X63.633 Y45.519 E14.53944 ; skirt
G1 X63.236 Y47.730 E14.60480 ; skirt
G1 X62.095 Y49.665 E14.67016 ; skirt
G1 X60.352 Y51.082 E14.73552 ; skirt
G1 X57.276 Y51.876 E14.82797 ; skirt
G1 X15.718 Y51.876 E16.03720 ; skirt
G1 X13.507 Y51.479 E16.10256 ; skirt
G1 X11.572 Y50.338 E16.16792 ; skirt
G1 X10.155 Y48.595 E16.23328 ; skirt
G1 X9.361 Y45.519 E16.32573 ; skirt
G1 X9.361 Y14.304 E17.23400 ; skirt
G1 X9.758 Y12.093 E17.29936 ; skirt
G1 X10.868 Y10.210 E17.36297 ; skirt
G1 E16.36297 F1800.00000 ; retract extruder 0
G92 E0 ; reset extrusion distance
G1 X34.299 Y17.499 F6600.000 ; move to first perimeter point
G1 E1.00000 F1800.00000 ; unretract extruder 0
G1 F1800
G1 X34.391 Y17.259 E1.00747 ; perimeter
G1 X34.511 Y17.028 E1.01506 ; perimeter
G1 X34.787 Y16.660 E1.02844 ; perimeter
G1 X35.142 Y16.359 E1.04196 ; perimeter
G1 X35.371 Y16.223 E1.04971 ; perimeter
G1 X35.754 Y16.066 E1.06177 ; perimeter
G1 X36.066 Y16.003 E1.07101 ; perimeter
G1 X36.525 Y15.987 E1.08440 ; perimeter
G1 X36.997 Y16.077 E1.09838 ; perimeter
G1 X37.438 Y16.269 E1.11236 ; perimeter
G1 X37.825 Y16.553 E1.12635 ; perimeter
G1 X38.140 Y16.917 E1.14034 ; perimeter
G1 X38.360 Y17.327 E1.15389 ; perimeter
G1 X38.447 Y17.589 E1.16193 ; perimeter
G1 X38.516 Y18.025 E1.17477 ; perimeter
G1 X38.506 Y41.919 E1.87001 ; perimeter
G1 X38.401 Y42.376 E1.88365 ; perimeter
G1 X38.294 Y42.633 E1.89174 ; perimeter
G1 X38.048 Y43.024 E1.90521 ; perimeter
G1 X37.717 Y43.355 E1.91882 ; perimeter
G1 X37.494 Y43.513 E1.92677 ; perimeter
G1 X37.086 Y43.710 E1.93996 ; perimeter
G1 X36.818 Y43.786 E1.94805 ; perimeter
G1 X36.359 Y43.838 E1.96151 ; perimeter
G1 X35.878 Y43.783 E1.97559 ; perimeter
G1 X35.421 Y43.624 E1.98966 ; perimeter
G1 X35.025 Y43.375 E2.00328 ; perimeter
G1 X34.821 Y43.192 E2.01124 ; perimeter
G1 X34.529 Y42.826 E2.02486 ; perimeter
G1 X34.319 Y42.391 E2.03894 ; perimeter
G1 X34.215 Y41.934 E2.05255 ; perimeter
G1 X34.202 Y41.692 E2.05960 ; perimeter
G1 X34.209 Y17.948 E2.75050 ; perimeter
G1 X34.288 Y17.558 E2.76208 ; perimeter
G1 X34.638 Y17.628 F6600.000 ; move to first perimeter point
G1 F900
G1 X34.717 Y17.406 E2.76895 ; perimeter
G1 X34.814 Y17.219 E2.77508 ; perimeter
G1 X35.049 Y16.907 E2.78644 ; perimeter
G1 X35.350 Y16.651 E2.79794 ; perimeter
G1 X35.530 Y16.544 E2.80405 ; perimeter
G1 X35.858 Y16.410 E2.81435 ; perimeter
G1 X36.107 Y16.359 E2.82175 ; perimeter
G1 X36.498 Y16.346 E2.83311 ; perimeter
G1 X36.891 Y16.420 E2.84477 ; perimeter
G1 X37.259 Y16.580 E2.85643 ; perimeter
G1 X37.582 Y16.818 E2.86809 ; perimeter
G1 X37.844 Y17.120 E2.87975 ; perimeter
G1 X38.031 Y17.469 E2.89126 ; perimeter
G1 X38.099 Y17.674 E2.89755 ; perimeter
G1 X38.159 Y18.053 E2.90872 ; perimeter
G1 X38.149 Y41.879 E3.60197 ; perimeter
G1 X38.060 Y42.267 E3.61355 ; perimeter
G1 X37.976 Y42.467 E3.61989 ; perimeter
G1 X37.767 Y42.800 E3.63132 ; perimeter
G1 X37.486 Y43.081 E3.64289 ; perimeter
G1 X37.312 Y43.205 E3.64909 ; perimeter
G1 X36.959 Y43.375 E3.66051 ; perimeter
G1 X36.749 Y43.434 E3.66684 ; perimeter
G1 X36.359 Y43.478 E3.67828 ; perimeter
G1 X35.958 Y43.433 E3.69001 ; perimeter
G1 X35.577 Y43.300 E3.70175 ; perimeter
G1 X35.240 Y43.088 E3.71332 ; perimeter
G1 X35.082 Y42.946 E3.71952 ; perimeter
G1 X34.834 Y42.635 E3.73109 ; perimeter
G1 X34.659 Y42.272 E3.74283 ; perimeter
G1 X34.570 Y41.884 E3.75440 ; perimeter
G1 X34.566 Y17.983 E4.44985 ; perimeter
G1 X34.626 Y17.687 E4.45865 ; perimeter
G1 X34.614 Y17.610 F6600.000 ; move inwards before travel
G1 E3.45865 F1800.00000 ; retract extruder 0
G92 E0 ; reset extrusion distance
G1 X49.412 Y17.909 F6600.000 ; move to first perimeter point
G1 E1.00000 F1800.00000 ; unretract extruder 0
G1 F1800
G1 X49.459 Y17.635 E1.00809 ; perimeter
G1 X49.612 Y17.199 E1.02155 ; perimeter
G1 X49.861 Y16.803 E1.03517 ; perimeter
G1 X50.043 Y16.599 E1.04312 ; perimeter
G1 X50.397 Y16.317 E1.05628 ; perimeter
G1 X50.636 Y16.184 E1.06424 ; perimeter
G1 X51.064 Y16.035 E1.07742 ; perimeter
G1 X51.338 Y15.989 E1.08551 ; perimeter
G1 X51.801 Y15.989 E1.09898 ; perimeter
G1 X52.272 Y16.097 E1.11305 ; perimeter
G1 X52.708 Y16.307 E1.12713 ; perimeter
G1 X53.087 Y16.608 E1.14120 ; perimeter
G1 X53.388 Y16.987 E1.15528 ; perimeter
G1 X53.598 Y17.423 E1.16936 ; perimeter
G1 X53.702 Y17.879 E1.18298 ; perimeter
G1 X53.716 Y18.121 E1.19003 ; perimeter
G1 X53.707 Y41.910 E1.88222 ; perimeter
G1 X53.601 Y42.381 E1.89627 ; perimeter
G1 X53.393 Y42.819 E1.91038 ; perimeter
G1 X53.102 Y43.186 E1.92402 ; perimeter
G1 X52.899 Y43.370 E1.93199 ; perimeter
G1 X52.516 Y43.612 E1.94517 ; perimeter
G1 X52.263 Y43.718 E1.95314 ; perimeter
G1 X51.822 Y43.820 E1.96632 ; perimeter
G1 X51.549 Y43.836 E1.97429 ; perimeter
G1 X51.098 Y43.786 E1.98749 ; perimeter
G1 X50.830 Y43.709 E1.99559 ; perimeter
G1 X50.412 Y43.508 E2.00908 ; perimeter
G1 X50.033 Y43.207 E2.02318 ; perimeter
G1 X49.740 Y42.840 E2.03684 ; perimeter
G1 X49.606 Y42.596 E2.04495 ; perimeter
G1 X49.452 Y42.158 E2.05843 ; perimeter
G1 X49.402 Y41.708 E2.07162 ; perimeter
G1 X49.412 Y17.969 E2.76236 ; perimeter
G1 X49.769 Y17.969 F6600.000 ; move to first perimeter point
G1 F900
G1 X49.806 Y17.725 E2.76954 ; perimeter
G1 X49.936 Y17.355 E2.78097 ; perimeter
G1 X50.147 Y17.018 E2.79254 ; perimeter
G1 X50.289 Y16.859 E2.79874 ; perimeter
G1 X50.596 Y16.615 E2.81015 ; perimeter
G1 X50.783 Y16.512 E2.81635 ; perimeter
G1 X51.153 Y16.382 E2.82777 ; perimeter
G1 X51.368 Y16.346 E2.83410 ; perimeter
G1 X51.760 Y16.346 E2.84553 ; perimeter
G1 X52.154 Y16.436 E2.85727 ; perimeter
G1 X52.517 Y16.611 E2.86900 ; perimeter
G1 X52.832 Y16.863 E2.88074 ; perimeter
G1 X53.084 Y17.178 E2.89248 ; perimeter
G1 X53.259 Y17.541 E2.90421 ; perimeter
G1 X53.347 Y17.929 E2.91579 ; perimeter
G1 X53.350 Y41.870 E3.61241 ; perimeter
G1 X53.262 Y42.264 E3.62415 ; perimeter
G1 X53.088 Y42.629 E3.63591 ; perimeter
G1 X52.841 Y42.941 E3.64750 ; perimeter
G1 X52.682 Y43.084 E3.65371 ; perimeter
G1 X52.351 Y43.294 E3.66514 ; perimeter
G1 X52.154 Y43.376 E3.67135 ; perimeter
G1 X51.771 Y43.465 E3.68277 ; perimeter
G1 X51.558 Y43.478 E3.68899 ; perimeter
G1 X51.167 Y43.434 E3.70042 ; perimeter
G1 X50.958 Y43.374 E3.70677 ; perimeter
G1 X50.603 Y43.204 E3.71822 ; perimeter
G1 X50.287 Y42.952 E3.72997 ; perimeter
G1 X50.038 Y42.641 E3.74157 ; perimeter
G1 X49.933 Y42.450 E3.74792 ; perimeter
G1 X49.803 Y42.078 E3.75937 ; perimeter
G1 X49.759 Y41.688 E3.77079 ; perimeter
G1 X49.769 Y18.029 E4.45920 ; perimeter
G1 X49.743 Y17.955 F6600.000 ; move inwards before travel
G1 E3.45920 F1800.00000 ; retract extruder 0
G92 E0 ; reset extrusion distance
G1 X23.316 Y18.094 F6600.000 ; move to first perimeter point
G1 E1.00000 F1800.00000 ; unretract extruder 0
G1 F1800
G1 X23.306 Y41.761 E1.68864 ; perimeter
G1 X23.198 Y42.232 E1.70272 ; perimeter
G1 X22.988 Y42.668 E1.71680 ; perimeter
G1 X22.696 Y43.034 E1.73042 ; perimeter
G1 X22.492 Y43.216 E1.73837 ; perimeter
G1 X22.110 Y43.457 E1.75153 ; perimeter
G1 X21.857 Y43.562 E1.75949 ; perimeter
G1 X21.416 Y43.662 E1.77265 ; perimeter
G1 X21.143 Y43.678 E1.78060 ; perimeter
G1 X20.693 Y43.627 E1.79378 ; perimeter
G1 X20.426 Y43.549 E1.80187 ; perimeter
G1 X20.009 Y43.348 E1.81534 ; perimeter
G1 X19.631 Y43.047 E1.82941 ; perimeter
G1 X19.329 Y42.668 E1.84349 ; perimeter
G1 X19.119 Y42.232 E1.85757 ; perimeter
G1 X19.015 Y41.776 E1.87119 ; perimeter
G1 X19.002 Y41.534 E1.87823 ; perimeter
G1 X19.012 Y17.883 E2.56642 ; perimeter
G1 X19.116 Y17.427 E2.58004 ; perimeter
G1 X19.220 Y17.174 E2.58799 ; perimeter
G1 X19.461 Y16.791 E2.60115 ; perimeter
G1 X19.643 Y16.587 E2.60911 ; perimeter
G1 X19.997 Y16.306 E2.62227 ; perimeter
G1 X20.236 Y16.173 E2.63022 ; perimeter
G1 X20.664 Y16.024 E2.64341 ; perimeter
G1 X20.938 Y15.978 E2.65150 ; perimeter
G1 X21.401 Y15.978 E2.66496 ; perimeter
G1 X21.872 Y16.086 E2.67904 ; perimeter
G1 X22.308 Y16.296 E2.69311 ; perimeter
G1 X22.687 Y16.597 E2.70719 ; perimeter
G1 X22.978 Y16.963 E2.72081 ; perimeter
G1 X23.111 Y17.203 E2.72877 ; perimeter
G1 X23.265 Y17.644 E2.74238 ; perimeter
G1 X23.309 Y18.034 E2.75380 ; perimeter
G1 X22.954 Y18.074 F6600.000 ; move to first perimeter point
G1 F900
G1 X22.949 Y41.720 E3.44185 ; perimeter
G1 X22.859 Y42.114 E3.45358 ; perimeter
G1 X22.684 Y42.477 E3.46532 ; perimeter
G1 X22.436 Y42.788 E3.47689 ; perimeter
G1 X22.277 Y42.930 E3.48309 ; perimeter
G1 X21.945 Y43.139 E3.49450 ; perimeter
G1 X21.748 Y43.220 E3.50070 ; perimeter
G1 X21.366 Y43.307 E3.51211 ; perimeter
G1 X21.153 Y43.319 E3.51831 ; perimeter
G1 X20.763 Y43.275 E3.52973 ; perimeter
G1 X20.554 Y43.215 E3.53606 ; perimeter
G1 X20.200 Y43.044 E3.54750 ; perimeter
G1 X19.885 Y42.792 E3.55923 ; perimeter
G1 X19.634 Y42.477 E3.57097 ; perimeter
G1 X19.459 Y42.114 E3.58270 ; perimeter
G1 X19.370 Y41.726 E3.59427 ; perimeter
G1 X19.369 Y17.923 E4.28687 ; perimeter
G1 X19.457 Y17.536 E4.29844 ; perimeter
G1 X19.539 Y17.339 E4.30464 ; perimeter
G1 X19.747 Y17.007 E4.31605 ; perimeter
G1 X19.889 Y16.848 E4.32225 ; perimeter
G1 X20.196 Y16.603 E4.33366 ; perimeter
G1 X20.383 Y16.500 E4.33986 ; perimeter
G1 X20.753 Y16.371 E4.35128 ; perimeter
G1 X20.968 Y16.335 E4.35761 ; perimeter
G1 X21.360 Y16.335 E4.36904 ; perimeter
G1 X21.754 Y16.425 E4.38078 ; perimeter
G1 X22.117 Y16.600 E4.39251 ; perimeter
G1 X22.432 Y16.851 E4.40425 ; perimeter
G1 X22.680 Y17.162 E4.41582 ; perimeter
G1 X22.783 Y17.349 E4.42203 ; perimeter
G1 X22.915 Y17.724 E4.43360 ; perimeter
G1 X22.948 Y18.015 E4.44210 ; perimeter
G1 X22.991 Y18.089 F6600.000 ; move inwards before travel
G1 E3.44210 F1800.00000 ; retract extruder 0
G92 E0 ; reset extrusion distance
G1 X40.106 Y44.962 F6600.000 ; move to first perimeter point
G1 E1.00000 F1800.00000 ; unretract extruder 0
G1 F1800
G1 X16.275 Y44.962 E1.69344 ; perimeter
G1 X16.275 Y14.861 E2.56928 ; perimeter
G1 X56.719 Y14.861 E3.74609 ; perimeter
G1 X56.719 Y44.962 E4.62194 ; perimeter
G1 X40.166 Y44.962 E5.10357 ; perimeter
G1 X40.166 Y45.319 F6600.000 ; move to first perimeter point
G1 F900
G1 X15.918 Y45.319 E5.80914 ; perimeter
G1 X15.918 Y14.504 E6.70577 ; perimeter
G1 X57.076 Y14.504 E7.90336 ; perimeter
G1 X57.076 Y45.319 E8.79998 ; perimeter
G1 X40.226 Y45.319 E9.29025 ; perimeter
G1 X39.858 Y45.064 F6600.000 ; move inwards before travel
G1 E8.29025 F1800.00000 ; retract extruder 0
G92 E0 ; reset extrusion distance
G1 X38.729 Y42.417 F6600.000 ; move to first infill point
G1 E1.00000 F1800.00000 ; unretract extruder 0
G1 F1800
G1 X49.087 Y32.060 E1.42892 ; infill
G1 X49.087 Y31.551 E1.44381 ; infill
G1 X38.825 Y41.813 E1.86877 ; infill
G1 X38.825 Y41.305 E1.88366 ; infill
G1 X49.087 Y31.043 E2.30862 ; infill
G1 X49.087 Y30.534 E2.32351 ; infill
G1 X38.825 Y40.796 E2.74847 ; infill
G1 X38.826 Y40.288 E2.76336 ; infill
G1 X49.087 Y30.026 E3.18832 ; infill
G1 X49.088 Y29.517 E3.20321 ; infill
G1 X38.826 Y39.779 E3.62817 ; infill
G1 X38.826 Y39.271 E3.64306 ; infill
G1 X49.088 Y29.009 E4.06802 ; infill
G1 X49.088 Y28.501 E4.08291 ; infill
G1 X38.826 Y38.762 E4.50787 ; infill
G1 X38.826 Y38.254 E4.52276 ; infill
G1 X49.088 Y27.992 E4.94772 ; infill
G1 X49.088 Y27.484 E4.96261 ; infill
G1 X38.827 Y37.746 E5.38757 ; infill
G1 X38.827 Y37.237 E5.40245 ; infill
G1 X49.089 Y26.975 E5.82742 ; infill
G1 X49.089 Y26.467 E5.84230 ; infill
G1 X38.827 Y36.729 E6.26727 ; infill
G1 X38.827 Y36.220 E6.28215 ; infill
G1 X49.089 Y25.959 E6.70711 ; infill
G1 X49.089 Y25.450 E6.72200 ; infill
G1 X38.828 Y35.712 E7.14696 ; infill
G1 X38.828 Y35.204 E7.16185 ; infill
G1 X49.090 Y24.942 E7.58681 ; infill
G1 X49.090 Y24.433 E7.60170 ; infill
G1 X38.828 Y34.695 E8.02666 ; infill
G1 X38.828 Y34.187 E8.04155 ; infill
G1 X49.090 Y23.925 E8.46651 ; infill
G1 X49.090 Y23.416 E8.48140 ; infill
G1 X38.828 Y33.678 E8.90636 ; infill
G1 X38.829 Y33.170 E8.92125 ; infill
G1 X49.090 Y22.908 E9.34621 ; infill
G1 X49.091 Y22.400 E9.36110 ; infill
G1 X38.829 Y32.661 E9.78606 ; infill
G1 X38.829 Y32.153 E9.80095 ; infill
G1 X49.091 Y21.891 E10.22591 ; infill
G1 X49.091 Y21.383 E10.24080 ; infill
G1 X38.829 Y31.645 E10.66576 ; infill
G1 X38.829 Y31.136 E10.68064 ; infill
G1 X49.091 Y20.874 E11.10561 ; infill
G1 X49.091 Y20.366 E11.12049 ; infill
G1 X38.830 Y30.628 E11.54546 ; infill
G1 X38.830 Y30.119 E11.56034 ; infill
G1 X49.092 Y19.858 E11.98530 ; infill
G1 X49.092 Y19.349 E12.00019 ; infill
G1 X38.830 Y29.611 E12.42515 ; infill
G1 X38.830 Y29.103 E12.44004 ; infill
G1 X49.092 Y18.841 E12.86500 ; infill
G1 X49.092 Y18.332 E12.87989 ; infill
G1 X38.831 Y28.594 E13.30485 ; infill
G1 X38.831 Y28.086 E13.31974 ; infill
G1 X49.096 Y17.820 E13.74485 ; infill
G1 X49.150 Y17.507 E13.75415 ; infill
G1 X49.285 Y17.123 E13.76606 ; infill
G1 X38.831 Y27.577 E14.19897 ; infill
G1 X38.831 Y27.069 E14.21386 ; infill
G1 E13.21386 F1800.00000 ; retract extruder 0
G92 E0 ; reset extrusion distance
G1 X23.631 Y27.023 F6600.000 ; move to first infill point
G1 E1.00000 F1800.00000 ; unretract extruder 0
G1 F1800
G1 X23.631 Y27.531 E1.01489 ; infill
