; generated by Slic3r 1.3.0-dev on 2018-07-25 at 14:58:55

; external perimeters extrusion width = 0.44mm (2.38mm^3/s)
; perimeters extrusion width = 0.56mm (6.20mm^3/s)
; infill extrusion width = 0.50mm (6.40mm^3/s)
; solid infill extrusion width = 0.56mm (6.20mm^3/s)
; top infill extrusion width = 0.56mm (3.10mm^3/s)

M190 S70 ; set bed temperature and wait for it to be reached
M104 S219 ; set temperature
G28 ; home all axes
G1 Z5 F5000 ; lift nozzle
G1 X0 Y0 F5000 ;

; Filament gcode

; Filament gcode

M109 S219 ; set temperature and wait for it to be reached
G21 ; set units to millimeters
G90 ; use absolute coordinates
M82 ; use absolute distances for extrusion
G92 E0 ; reset extrusion distance
M106 S255 ; enable fan
;LAYER:
G1 E-1.00000 F1800.00000 ; retract extruder 0
G92 E0 ; reset extrusion distance
G1 Z0.200 F6600.000 ; move to next layer (0)
G1 X18.720 Y76.426 F6600.000 ; move to first skirt point
G1 E1.00000 F1800.00000 ; unretract extruder 0
G1 F2100
G1 X20.290 Y76.249 E1.04595 ; skirt
G1 X101.290 Y76.249 E3.40284 ; skirt
G1 X103.626 Y76.647 E3.47181 ; skirt
G1 X105.700 Y77.793 E3.54077 ; skirt
G1 X107.279 Y79.561 E3.60973 ; skirt
G1 X108.184 Y81.751 E3.67869 ; skirt
G1 X108.361 Y83.321 E3.72464 ; skirt
G1 X108.361 Y96.021 E4.09418 ; skirt
G1 X107.964 Y98.357 E4.16314 ; skirt
G1 X106.817 Y100.431 E4.23210 ; skirt
G1 X105.049 Y102.010 E4.30106 ; skirt
G1 X102.859 Y102.916 E4.37002 ; skirt
G1 X101.290 Y103.092 E4.41597 ; skirt
G1 X20.290 Y103.092 E6.77287 ; skirt
G1 X17.953 Y102.695 E6.84183 ; skirt
G1 X15.879 Y101.548 E6.91079 ; skirt
G1 X14.300 Y99.780 E6.97975 ; skirt
G1 X13.395 Y97.590 E7.04871 ; skirt
G1 X13.218 Y96.021 E7.09466 ; skirt
G1 X13.218 Y83.321 E7.46420 ; skirt
G1 X13.615 Y80.984 E7.53316 ; skirt
G1 X14.762 Y78.910 E7.60213 ; skirt
G1 X16.530 Y77.332 E7.67109 ; skirt
G1 X18.665 Y76.449 E7.73830 ; skirt
G1 X19.032 Y76.725 F6600.000 ; move to first skirt point
G1 F2100
G1 X20.290 Y76.607 E7.77504 ; skirt
G1 X101.290 Y76.607 E10.13194 ; skirt
G1 X103.564 Y77.004 E10.19912 ; skirt
G1 X105.570 Y78.148 E10.26631 ; skirt
G1 X107.069 Y79.904 E10.33349 ; skirt
G1 X107.885 Y82.064 E10.40068 ; skirt
G1 X108.004 Y83.321 E10.43742 ; skirt
G1 X108.004 Y96.021 E10.80696 ; skirt
G1 X107.607 Y98.295 E10.87414 ; skirt
G1 X106.463 Y100.301 E10.94133 ; skirt
G1 X104.707 Y101.800 E11.00851 ; skirt
G1 X102.547 Y102.616 E11.07570 ; skirt
G1 X101.290 Y102.735 E11.11244 ; skirt
G1 X20.290 Y102.735 E13.46934 ; skirt
G1 X18.015 Y102.338 E13.53652 ; skirt
G1 X16.009 Y101.194 E13.60371 ; skirt
G1 X14.510 Y99.438 E13.67089 ; skirt
G1 X13.694 Y97.278 E13.73808 ; skirt
G1 X13.575 Y96.021 E13.77482 ; skirt
G1 X13.575 Y83.321 E14.14436 ; skirt
G1 X13.972 Y81.046 E14.21154 ; skirt
G1 X15.117 Y79.041 E14.27873 ; skirt
G1 X16.872 Y77.541 E14.34591 ; skirt
G1 X18.976 Y76.746 E14.41135 ; skirt
G1 X20.290 Y76.964 F6600.000 ; move to first skirt point
G1 F2100
G1 X101.290 Y76.964 E16.76825 ; skirt
G1 X103.500 Y77.360 E16.83361 ; skirt
G1 X105.435 Y78.501 E16.89897 ; skirt
G1 X106.853 Y80.244 E16.96433 ; skirt
G1 X107.647 Y83.321 E17.05678 ; skirt
G1 X107.647 Y96.021 E17.42632 ; skirt
G1 X107.250 Y98.232 E17.49168 ; skirt
G1 X106.109 Y100.166 E17.55704 ; skirt
G1 X104.366 Y101.584 E17.62240 ; skirt
G1 X101.290 Y102.378 E17.71485 ; skirt
G1 X20.290 Y102.378 E20.07174 ; skirt
G1 X18.079 Y101.981 E20.13710 ; skirt
G1 X16.144 Y100.840 E20.20246 ; skirt
G1 X14.726 Y99.097 E20.26783 ; skirt
G1 X13.932 Y96.021 E20.36028 ; skirt
G1 X13.932 Y83.321 E20.72981 ; skirt
G1 X14.329 Y81.110 E20.79518 ; skirt
G1 X15.470 Y79.175 E20.86054 ; skirt
G1 X17.213 Y77.758 E20.92590 ; skirt
G1 X20.231 Y76.979 E21.01660 ; skirt
G1 E20.01660 F1800.00000 ; retract extruder 0
G92 E0 ; reset extrusion distance
G1 X93.540 Y86.719 F6600.000 ; move to first perimeter point
G1 E1.00000 F1800.00000 ; unretract extruder 0
G1 F900
G1 X93.592 Y86.471 E1.00736 ; perimeter
G1 X93.679 Y86.228 E1.01487 ; perimeter
G1 X93.792 Y86.009 E1.02205 ; perimeter
G1 X93.938 Y85.803 E1.02939 ; perimeter
G1 X94.110 Y85.618 E1.03674 ; perimeter
G1 X94.306 Y85.459 E1.04409 ; perimeter
G1 X94.522 Y85.328 E1.05144 ; perimeter
G1 X94.754 Y85.227 E1.05879 ; perimeter
G1 X94.997 Y85.159 E1.06614 ; perimeter
G1 X95.247 Y85.124 E1.07350 ; perimeter
G1 X95.506 Y85.125 E1.08101 ; perimeter
G1 X95.750 Y85.159 E1.08818 ; perimeter
G1 X95.993 Y85.227 E1.09553 ; perimeter
G1 X96.225 Y85.328 E1.10288 ; perimeter
G1 X96.441 Y85.459 E1.11023 ; perimeter
G1 X96.637 Y85.618 E1.11759 ; perimeter
G1 X96.812 Y85.808 E1.12510 ; perimeter
G1 X96.955 Y86.009 E1.13228 ; perimeter
G1 X97.071 Y86.233 E1.13962 ; perimeter
G1 X97.155 Y86.471 E1.14697 ; perimeter
G1 X97.207 Y86.719 E1.15432 ; perimeter
G1 X97.223 Y86.964 E1.16147 ; perimeter
G1 X97.223 Y93.142 E1.34124 ; perimeter
G1 X97.207 Y93.387 E1.34839 ; perimeter
G1 X97.155 Y93.635 E1.35575 ; perimeter
G1 X97.068 Y93.878 E1.36326 ; perimeter
G1 X96.954 Y94.097 E1.37044 ; perimeter
G1 X96.808 Y94.303 E1.37779 ; perimeter
G1 X96.636 Y94.488 E1.38515 ; perimeter
G1 X96.435 Y94.650 E1.39266 ; perimeter
G1 X96.224 Y94.778 E1.39983 ; perimeter
G1 X95.992 Y94.878 E1.40718 ; perimeter
G1 X95.749 Y94.947 E1.41453 ; perimeter
G1 X95.499 Y94.981 E1.42188 ; perimeter
G1 X95.246 Y94.981 E1.42923 ; perimeter
G1 X94.996 Y94.946 E1.43658 ; perimeter
G1 X94.753 Y94.878 E1.44394 ; perimeter
G1 X94.516 Y94.774 E1.45145 ; perimeter
G1 X94.306 Y94.646 E1.45862 ; perimeter
G1 X94.110 Y94.486 E1.46598 ; perimeter
G1 X93.934 Y94.297 E1.47349 ; perimeter
G1 X93.792 Y94.096 E1.48067 ; perimeter
G1 X93.676 Y93.871 E1.48802 ; perimeter
G1 X93.591 Y93.633 E1.49536 ; perimeter
G1 X93.540 Y93.386 E1.50271 ; perimeter
G1 X93.523 Y93.141 E1.50986 ; perimeter
G1 X93.536 Y86.779 E1.69499 ; perimeter
G1 X93.540 Y86.719 F6600.000 ; move inwards before travel
G1 E0.69499 F1800.00000 ; retract extruder 0
G92 E0 ; reset extrusion distance
G1 X39.604 Y95.464 F6600.000 ; move to first perimeter point
G1 E1.00000 F1800.00000 ; unretract extruder 0
G1 F1800
G1 X26.149 Y95.464 E1.39153 ; perimeter
G1 X26.128 Y95.273 E1.39712 ; perimeter
G1 X26.504 Y95.189 E1.40834 ; perimeter
G1 X26.786 Y95.084 E1.41710 ; perimeter
G1 X27.057 Y94.937 E1.42606 ; perimeter
G1 X27.303 Y94.752 E1.43502 ; perimeter
G1 X27.521 Y94.534 E1.44399 ; perimeter
G1 X27.705 Y94.288 E1.45295 ; perimeter
G1 X27.853 Y94.016 E1.46194 ; perimeter
G1 X27.962 Y93.722 E1.47106 ; perimeter
G1 X28.026 Y93.428 E1.47983 ; perimeter
G1 X28.048 Y93.121 E1.48879 ; perimeter
G1 X28.026 Y92.813 E1.49775 ; perimeter
G1 X27.961 Y92.513 E1.50671 ; perimeter
G1 X27.853 Y92.224 E1.51567 ; perimeter
G1 X27.705 Y91.954 E1.52463 ; perimeter
G1 X27.521 Y91.707 E1.53360 ; perimeter
G1 X27.303 Y91.489 E1.54256 ; perimeter
G1 X27.057 Y91.305 E1.55152 ; perimeter
G1 X26.786 Y91.157 E1.56048 ; perimeter
G1 X26.498 Y91.050 E1.56944 ; perimeter
G1 X26.196 Y90.984 E1.57843 ; perimeter
G1 X25.883 Y90.963 E1.58756 ; perimeter
G1 X25.582 Y90.984 E1.59632 ; perimeter
G1 X25.281 Y91.050 E1.60528 ; perimeter
G1 X24.993 Y91.157 E1.61424 ; perimeter
G1 X24.723 Y91.305 E1.62321 ; perimeter
G1 X24.476 Y91.489 E1.63217 ; perimeter
G1 X24.258 Y91.707 E1.64113 ; perimeter
G1 X24.074 Y91.954 E1.65009 ; perimeter
G1 X23.926 Y92.224 E1.65905 ; perimeter
G1 X23.818 Y92.513 E1.66801 ; perimeter
G1 X23.753 Y92.813 E1.67697 ; perimeter
G1 X23.731 Y93.121 E1.68593 ; perimeter
G1 X23.753 Y93.428 E1.69490 ; perimeter
G1 X23.819 Y93.730 E1.70389 ; perimeter
G1 X23.929 Y94.023 E1.71301 ; perimeter
G1 X24.074 Y94.288 E1.72178 ; perimeter
G1 X24.258 Y94.534 E1.73074 ; perimeter
G1 X24.476 Y94.752 E1.73970 ; perimeter
G1 X24.723 Y94.937 E1.74866 ; perimeter
G1 X24.994 Y95.085 E1.75765 ; perimeter
G1 X25.288 Y95.193 E1.76678 ; perimeter
G1 X25.652 Y95.272 E1.77760 ; perimeter
G1 X25.631 Y95.464 E1.78320 ; perimeter
G1 X20.847 Y95.464 E1.92241 ; perimeter
G1 X20.847 Y83.878 E2.25953 ; perimeter
G1 X100.732 Y83.878 E4.58401 ; perimeter
G1 X100.732 Y95.464 E4.92113 ; perimeter
G1 X95.913 Y95.464 E5.06135 ; perimeter
G1 X95.888 Y95.278 E5.06679 ; perimeter
G1 X96.112 Y95.216 E5.07356 ; perimeter
G1 X96.389 Y95.096 E5.08233 ; perimeter
G1 X96.641 Y94.943 E5.09091 ; perimeter
G1 X96.880 Y94.750 E5.09984 ; perimeter
G1 X97.086 Y94.529 E5.10864 ; perimeter
G1 X97.260 Y94.283 E5.11741 ; perimeter
G1 X97.396 Y94.021 E5.12599 ; perimeter
G1 X97.500 Y93.732 E5.13492 ; perimeter
G1 X97.561 Y93.436 E5.14372 ; perimeter
G1 X97.581 Y93.154 E5.15194 ; perimeter
G1 X97.581 Y86.952 E5.33242 ; perimeter
G1 X97.561 Y86.670 E5.34064 ; perimeter
G1 X97.500 Y86.375 E5.34941 ; perimeter
G1 X97.399 Y86.091 E5.35818 ; perimeter
G1 X97.260 Y85.823 E5.36695 ; perimeter
G1 X97.090 Y85.582 E5.37553 ; perimeter
G1 X96.881 Y85.357 E5.38446 ; perimeter
G1 X96.647 Y85.166 E5.39326 ; perimeter
G1 X96.389 Y85.010 E5.40203 ; perimeter
G1 X96.113 Y84.890 E5.41080 ; perimeter
G1 X95.823 Y84.808 E5.41957 ; perimeter
G1 X95.531 Y84.768 E5.42815 ; perimeter
G1 X95.224 Y84.767 E5.43708 ; perimeter
G1 X94.924 Y84.808 E5.44588 ; perimeter
G1 X94.634 Y84.890 E5.45465 ; perimeter
G1 X94.357 Y85.010 E5.46342 ; perimeter
G1 X94.100 Y85.166 E5.47219 ; perimeter
G1 X93.866 Y85.357 E5.48096 ; perimeter
G1 X93.660 Y85.577 E5.48973 ; perimeter
G1 X93.487 Y85.823 E5.49850 ; perimeter
G1 X93.351 Y86.085 E5.50708 ; perimeter
G1 X93.247 Y86.374 E5.51601 ; perimeter
G1 X93.186 Y86.670 E5.52481 ; perimeter
G1 X93.166 Y86.952 E5.53302 ; perimeter
G1 X93.166 Y93.153 E5.71347 ; perimeter
G1 X93.186 Y93.435 E5.72168 ; perimeter
G1 X93.247 Y93.730 E5.73045 ; perimeter
G1 X93.348 Y94.014 E5.73922 ; perimeter
G1 X93.486 Y94.281 E5.74799 ; perimeter
G1 X93.656 Y94.522 E5.75657 ; perimeter
G1 X93.865 Y94.747 E5.76550 ; perimeter
G1 X94.099 Y94.938 E5.77430 ; perimeter
G1 X94.351 Y95.092 E5.78288 ; perimeter
G1 X94.632 Y95.215 E5.79181 ; perimeter
G1 X94.859 Y95.279 E5.79866 ; perimeter
G1 X94.833 Y95.464 E5.80409 ; perimeter
G1 X80.710 Y95.464 E6.21505 ; perimeter
G1 X80.685 Y95.278 E6.22049 ; perimeter
G1 X80.928 Y95.210 E6.22785 ; perimeter
G1 X81.205 Y95.090 E6.23662 ; perimeter
G1 X81.457 Y94.937 E6.24520 ; perimeter
G1 X81.696 Y94.744 E6.25414 ; perimeter
G1 X81.902 Y94.523 E6.26293 ; perimeter
G1 X82.076 Y94.277 E6.27170 ; perimeter
G1 X82.212 Y94.016 E6.28028 ; perimeter
G1 X82.316 Y93.727 E6.28922 ; perimeter
G1 X82.377 Y93.431 E6.29801 ; perimeter
G1 X82.397 Y93.149 E6.30623 ; perimeter
G1 X82.397 Y86.952 E6.48655 ; perimeter
G1 X82.377 Y86.670 E6.49477 ; perimeter
G1 X82.316 Y86.375 E6.50354 ; perimeter
G1 X82.215 Y86.091 E6.51231 ; perimeter
G1 X82.076 Y85.823 E6.52108 ; perimeter
G1 X81.903 Y85.577 E6.52985 ; perimeter
G1 X81.697 Y85.357 E6.53862 ; perimeter
G1 X81.463 Y85.167 E6.54738 ; perimeter
G1 X81.206 Y85.010 E6.55615 ; perimeter
G1 X80.929 Y84.890 E6.56492 ; perimeter
G1 X80.639 Y84.809 E6.57369 ; perimeter
G1 X80.341 Y84.767 E6.58246 ; perimeter
G1 X80.039 Y84.767 E6.59123 ; perimeter
G1 X79.747 Y84.807 E6.59981 ; perimeter
G1 X79.451 Y84.889 E6.60874 ; perimeter
G1 X79.174 Y85.010 E6.61754 ; perimeter
G1 X78.916 Y85.166 E6.62631 ; perimeter
G1 X78.683 Y85.356 E6.63508 ; perimeter
G1 X78.477 Y85.577 E6.64384 ; perimeter
G1 X78.303 Y85.823 E6.65261 ; perimeter
G1 X78.164 Y86.090 E6.66138 ; perimeter
G1 X78.063 Y86.374 E6.67015 ; perimeter
G1 X78.002 Y86.669 E6.67892 ; perimeter
G1 X77.982 Y86.951 E6.68714 ; perimeter
G1 X77.982 Y93.147 E6.86744 ; perimeter
G1 X78.002 Y93.429 E6.87565 ; perimeter
G1 X78.063 Y93.724 E6.88442 ; perimeter
G1 X78.164 Y94.008 E6.89320 ; perimeter
G1 X78.302 Y94.276 E6.90197 ; perimeter
G1 X78.476 Y94.522 E6.91074 ; perimeter
G1 X78.682 Y94.743 E6.91951 ; perimeter
G1 X78.915 Y94.933 E6.92828 ; perimeter
G1 X79.173 Y95.090 E6.93705 ; perimeter
G1 X79.449 Y95.210 E6.94582 ; perimeter
G1 X79.694 Y95.279 E6.95323 ; perimeter
G1 X79.669 Y95.464 E6.95866 ; perimeter
G1 X56.948 Y95.464 E7.61978 ; perimeter
G1 X56.928 Y95.272 E7.62538 ; perimeter
G1 X57.298 Y95.192 E7.63641 ; perimeter
G1 X57.586 Y95.084 E7.64537 ; perimeter
G1 X57.857 Y94.937 E7.65433 ; perimeter
G1 X58.103 Y94.752 E7.66329 ; perimeter
G1 X58.321 Y94.534 E7.67225 ; perimeter
G1 X58.506 Y94.287 E7.68124 ; perimeter
G1 X58.655 Y94.011 E7.69037 ; perimeter
G1 X58.761 Y93.729 E7.69913 ; perimeter
G1 X58.826 Y93.428 E7.70809 ; perimeter
G1 X58.848 Y93.121 E7.71705 ; perimeter
G1 X58.826 Y92.813 E7.72602 ; perimeter
G1 X58.761 Y92.513 E7.73498 ; perimeter
G1 X58.653 Y92.223 E7.74397 ; perimeter
G1 X58.501 Y91.948 E7.75309 ; perimeter
G1 X58.321 Y91.707 E7.76186 ; perimeter
G1 X58.103 Y91.489 E7.77082 ; perimeter
G1 X57.844 Y91.296 E7.78022 ; perimeter
G1 X57.356 Y91.062 E7.79598 ; perimeter
G1 X56.996 Y90.984 E7.80670 ; perimeter
G1 X56.683 Y90.963 E7.81582 ; perimeter
G1 X56.382 Y90.984 E7.82459 ; perimeter
G1 X56.081 Y91.050 E7.83355 ; perimeter
G1 X55.793 Y91.157 E7.84251 ; perimeter
G1 X55.523 Y91.305 E7.85148 ; perimeter
G1 X55.276 Y91.489 E7.86044 ; perimeter
G1 X55.058 Y91.707 E7.86940 ; perimeter
G1 X54.873 Y91.954 E7.87839 ; perimeter
G1 X54.724 Y92.230 E7.88751 ; perimeter
G1 X54.618 Y92.513 E7.89628 ; perimeter
G1 X54.553 Y92.813 E7.90524 ; perimeter
G1 X54.531 Y93.122 E7.91423 ; perimeter
G1 X54.554 Y93.434 E7.92336 ; perimeter
G1 X54.618 Y93.729 E7.93212 ; perimeter
G1 X54.726 Y94.017 E7.94108 ; perimeter
G1 X54.874 Y94.288 E7.95007 ; perimeter
G1 X55.063 Y94.539 E7.95920 ; perimeter
G1 X55.276 Y94.752 E7.96797 ; perimeter
G1 X55.523 Y94.937 E7.97693 ; perimeter
G1 X55.794 Y95.085 E7.98592 ; perimeter
G1 X56.088 Y95.193 E7.99504 ; perimeter
G1 X56.452 Y95.272 E8.00587 ; perimeter
G1 X56.431 Y95.464 E8.01147 ; perimeter
G1 X39.664 Y95.464 E8.49933 ; perimeter
G1 E7.49933 F1800.00000 ; retract extruder 0
G92 E0 ; reset extrusion distance
G1 X78.340 Y93.135 F6600.000 ; move to first perimeter point
G1 E1.00000 F1800.00000 ; unretract extruder 0
G1 F900
G1 X78.340 Y86.963 E1.17959 ; perimeter
G1 X78.356 Y86.718 E1.18674 ; perimeter
G1 X78.408 Y86.471 E1.19409 ; perimeter
G1 X78.492 Y86.233 E1.20144 ; perimeter
G1 X78.609 Y86.009 E1.20879 ; perimeter
G1 X78.754 Y85.802 E1.21614 ; perimeter
G1 X78.927 Y85.618 E1.22348 ; perimeter
G1 X79.123 Y85.459 E1.23083 ; perimeter
G1 X79.339 Y85.327 E1.23818 ; perimeter
G1 X79.571 Y85.227 E1.24554 ; perimeter
G1 X79.819 Y85.158 E1.25305 ; perimeter
G1 X80.064 Y85.124 E1.26022 ; perimeter
G1 X80.316 Y85.125 E1.26757 ; perimeter
G1 X80.566 Y85.159 E1.27492 ; perimeter
G1 X80.809 Y85.227 E1.28227 ; perimeter
G1 X81.041 Y85.328 E1.28961 ; perimeter
G1 X81.257 Y85.459 E1.29696 ; perimeter
G1 X81.453 Y85.618 E1.30431 ; perimeter
G1 X81.625 Y85.803 E1.31166 ; perimeter
G1 X81.771 Y86.009 E1.31901 ; perimeter
G1 X81.887 Y86.234 E1.32635 ; perimeter
G1 X81.971 Y86.471 E1.33370 ; perimeter
G1 X82.023 Y86.719 E1.34105 ; perimeter
G1 X82.040 Y86.964 E1.34820 ; perimeter
G1 X82.040 Y93.137 E1.52781 ; perimeter
G1 X82.023 Y93.382 E1.53496 ; perimeter
G1 X81.971 Y93.629 E1.54232 ; perimeter
G1 X81.884 Y93.872 E1.54983 ; perimeter
G1 X81.770 Y94.091 E1.55701 ; perimeter
G1 X81.625 Y94.297 E1.56436 ; perimeter
G1 X81.452 Y94.482 E1.57171 ; perimeter
G1 X81.251 Y94.644 E1.57923 ; perimeter
G1 X81.040 Y94.772 E1.58640 ; perimeter
G1 X80.809 Y94.873 E1.59375 ; perimeter
G1 X80.565 Y94.941 E1.60110 ; perimeter
G1 X80.315 Y94.975 E1.60845 ; perimeter
G1 X80.063 Y94.975 E1.61580 ; perimeter
G1 X79.812 Y94.941 E1.62315 ; perimeter
G1 X79.569 Y94.873 E1.63049 ; perimeter
G1 X79.338 Y94.772 E1.63784 ; perimeter
G1 X79.122 Y94.641 E1.64519 ; perimeter
G1 X78.926 Y94.481 E1.65254 ; perimeter
G1 X78.754 Y94.296 E1.65989 ; perimeter
G1 X78.608 Y94.090 E1.66724 ; perimeter
G1 X78.492 Y93.866 E1.67459 ; perimeter
G1 X78.408 Y93.628 E1.68194 ; perimeter
G1 X78.356 Y93.380 E1.68929 ; perimeter
G1 X78.344 Y93.195 E1.69469 ; perimeter
G1 X78.340 Y93.135 F6600.000 ; move inwards before travel
G1 E0.69469 F1800.00000 ; retract extruder 0
G92 E0 ; reset extrusion distance
G1 X58.490 Y93.121 F6600.000 ; move to first perimeter point
G1 E1.00000 F1800.00000 ; unretract extruder 0
G1 F900
G1 X58.472 Y93.377 E1.00747 ; perimeter
