; generated by Slic3r 1.3.0-dev on 2018-07-19 at 18:46:37

; external perimeters extrusion width = 0.44mm (2.38mm^3/s)
; perimeters extrusion width = 0.56mm (6.20mm^3/s)
; infill extrusion width = 0.50mm (6.40mm^3/s)
; solid infill extrusion width = 0.56mm (6.20mm^3/s)
; top infill extrusion width = 0.56mm (3.10mm^3/s)

M190 S70 ; set bed temperature and wait for it to be reached
M104 S219 ; set temperature
G28 ; home all axes
G1 Z5 F5000 ; lift nozzle
G1 X0 Y0 F5000 ;

; Filament gcode

; Filament gcode

M109 S219 ; set temperature and wait for it to be reached
G21 ; set units to millimeters
G90 ; use absolute coordinates
M82 ; use absolute distances for extrusion
G92 E0 ; reset extrusion distance
M106 S255 ; enable fan
;LAYER:
G1 E-1.00000 F1800.00000 ; retract extruder 0
G92 E0 ; reset extrusion distance
G1 Z0.200 F6600.000 ; move to next layer (0)
G1 X18.822 Y23.986 F6600.000 ; move to first skirt point
G1 E1.00000 F1800.00000 ; unretract extruder 0
G1 F2100
G1 X19.714 Y23.366 E1.03161 ; skirt
G1 X20.663 Y22.837 E1.06321 ; skirt
G1 X21.659 Y22.404 E1.09481 ; skirt
G1 X22.029 Y22.272 E1.10625 ; skirt
G1 X23.064 Y21.977 E1.13756 ; skirt
G1 X23.754 Y21.840 E1.15803 ; skirt
G1 X24.833 Y21.714 E1.18964 ; skirt
G1 X25.572 Y21.686 E1.21116 ; skirt
G1 X111.172 Y21.686 E3.70190 ; skirt
G1 X111.911 Y21.714 E3.72343 ; skirt
G1 X112.601 Y21.782 E3.74361 ; skirt
G1 X113.670 Y21.975 E3.77522 ; skirt
G1 X114.715 Y22.272 E3.80682 ; skirt
G1 X115.726 Y22.670 E3.83843 ; skirt
G1 X116.081 Y22.837 E3.84985 ; skirt
G1 X117.021 Y23.361 E3.88117 ; skirt
G1 X117.606 Y23.752 E3.90164 ; skirt
G1 X117.923 Y23.986 E3.91310 ; skirt
G1 X118.749 Y24.689 E3.94467 ; skirt
G1 X119.239 Y25.180 E3.96485 ; skirt
G1 X119.503 Y25.471 E3.97629 ; skirt
G1 X120.177 Y26.323 E4.00789 ; skirt
G1 X120.765 Y27.236 E4.03950 ; skirt
G1 X121.092 Y27.848 E4.05969 ; skirt
G1 X121.525 Y28.844 E4.09129 ; skirt
G1 X121.658 Y29.215 E4.10275 ; skirt
G1 X121.954 Y30.259 E4.13432 ; skirt
G1 X122.147 Y31.328 E4.16594 ; skirt
G1 X122.215 Y32.018 E4.18611 ; skirt
G1 X122.243 Y32.757 E4.20764 ; skirt
G1 X122.243 Y67.057 E5.20568 ; skirt
G1 X122.215 Y67.797 E5.22721 ; skirt
G1 X122.147 Y68.487 E5.24739 ; skirt
G1 X121.954 Y69.556 E5.27900 ; skirt
G1 X121.658 Y70.601 E5.31060 ; skirt
G1 X121.260 Y71.611 E5.34221 ; skirt
G1 X121.092 Y71.966 E5.35363 ; skirt
G1 X120.568 Y72.907 E5.38495 ; skirt
G1 X120.178 Y73.492 E5.40542 ; skirt
G1 X119.943 Y73.808 E5.41686 ; skirt
G1 X119.503 Y74.344 E5.43704 ; skirt
G1 X118.750 Y75.125 E5.46863 ; skirt
G1 X118.458 Y75.389 E5.48007 ; skirt
G1 X117.606 Y76.063 E5.51167 ; skirt
G1 X116.701 Y76.645 E5.54299 ; skirt
G1 X116.081 Y76.977 E5.56347 ; skirt
G1 X115.726 Y77.145 E5.57489 ; skirt
G1 X114.715 Y77.543 E5.60649 ; skirt
G1 X113.670 Y77.840 E5.63811 ; skirt
G1 X112.602 Y78.033 E5.66970 ; skirt
G1 X111.911 Y78.101 E5.68990 ; skirt
G1 X111.172 Y78.129 E5.71142 ; skirt
G1 X25.572 Y78.129 E8.20216 ; skirt
G1 X24.833 Y78.101 E8.22368 ; skirt
G1 X24.142 Y78.033 E8.24387 ; skirt
G1 X23.073 Y77.840 E8.27547 ; skirt
G1 X22.028 Y77.543 E8.30708 ; skirt
G1 X21.018 Y77.145 E8.33868 ; skirt
G1 X20.662 Y76.977 E8.35012 ; skirt
G1 X19.714 Y76.448 E8.38171 ; skirt
G1 X19.137 Y76.063 E8.40191 ; skirt
G1 X18.286 Y75.389 E8.43351 ; skirt
G1 X17.995 Y75.125 E8.44493 ; skirt
G1 X17.240 Y74.344 E8.47654 ; skirt
G1 X16.566 Y73.491 E8.50816 ; skirt
G1 X15.979 Y72.578 E8.53975 ; skirt
G1 X15.652 Y71.966 E8.55994 ; skirt
G1 X15.484 Y71.611 E8.57136 ; skirt
G1 X15.086 Y70.601 E8.60297 ; skirt
G1 X14.789 Y69.556 E8.63457 ; skirt
G1 X14.654 Y68.875 E8.65476 ; skirt
G1 X14.596 Y68.486 E8.66621 ; skirt
G1 X14.509 Y67.404 E8.69780 ; skirt
G1 X14.501 Y32.757 E9.70593 ; skirt
G1 X14.528 Y32.018 E9.72746 ; skirt
G1 X14.654 Y30.939 E9.75905 ; skirt
G1 X14.885 Y29.878 E9.79066 ; skirt
G1 X15.218 Y28.844 E9.82226 ; skirt
G1 X15.652 Y27.848 E9.85388 ; skirt
G1 X16.181 Y26.900 E9.88547 ; skirt
G1 X16.800 Y26.007 E9.91709 ; skirt
G1 X17.504 Y25.180 E9.94868 ; skirt
G1 X17.995 Y24.689 E9.96888 ; skirt
G1 X18.776 Y24.024 E9.99873 ; skirt
G1 X19.035 Y24.272 F6600.000 ; move to first skirt point
G1 F2100
G1 X19.898 Y23.673 E10.02932 ; skirt
G1 X20.816 Y23.160 E10.05991 ; skirt
G1 X21.779 Y22.740 E10.09049 ; skirt
G1 X22.149 Y22.608 E10.10193 ; skirt
G1 X23.151 Y22.324 E10.13221 ; skirt
G1 X23.806 Y22.193 E10.15167 ; skirt
G1 X24.850 Y22.071 E10.18226 ; skirt
G1 X25.572 Y22.043 E10.20327 ; skirt
G1 X111.172 Y22.043 E12.69401 ; skirt
G1 X111.894 Y22.071 E12.71503 ; skirt
G1 X112.549 Y22.135 E12.73419 ; skirt
G1 X113.584 Y22.321 E12.76478 ; skirt
G1 X114.595 Y22.608 E12.79536 ; skirt
G1 X115.573 Y22.992 E12.82595 ; skirt
G1 X115.928 Y23.160 E12.83737 ; skirt
G1 X116.838 Y23.668 E12.86767 ; skirt
G1 X117.710 Y24.273 E12.89857 ; skirt
G1 X118.509 Y24.954 E12.92913 ; skirt
G1 X118.975 Y25.420 E12.94828 ; skirt
G1 X119.239 Y25.711 E12.95972 ; skirt
G1 X119.891 Y26.536 E12.99031 ; skirt
G1 X120.458 Y27.420 E13.02089 ; skirt
G1 X120.769 Y28.001 E13.04006 ; skirt
G1 X121.189 Y28.965 E13.07065 ; skirt
G1 X121.322 Y29.335 E13.08210 ; skirt
G1 X121.608 Y30.346 E13.11266 ; skirt
G1 X121.794 Y31.381 E13.14326 ; skirt
G1 X121.859 Y32.036 E13.16241 ; skirt
G1 X121.886 Y32.757 E13.18342 ; skirt
G1 X121.886 Y67.057 E14.18147 ; skirt
G1 X121.859 Y67.779 E14.20248 ; skirt
G1 X121.794 Y68.435 E14.22165 ; skirt
G1 X121.608 Y69.469 E14.25223 ; skirt
G1 X121.321 Y70.481 E14.28282 ; skirt
G1 X120.937 Y71.459 E14.31341 ; skirt
G1 X120.769 Y71.814 E14.32483 ; skirt
G1 X120.262 Y72.723 E14.35513 ; skirt
G1 X119.657 Y73.595 E14.38601 ; skirt
G1 X119.239 Y74.104 E14.40517 ; skirt
G1 X118.510 Y74.860 E14.43574 ; skirt
G1 X118.218 Y75.124 E14.44718 ; skirt
G1 X117.394 Y75.776 E14.47776 ; skirt
G1 X116.518 Y76.339 E14.50806 ; skirt
G1 X115.928 Y76.655 E14.52752 ; skirt
G1 X115.573 Y76.822 E14.53895 ; skirt
G1 X114.595 Y77.207 E14.56953 ; skirt
G1 X113.583 Y77.494 E14.60012 ; skirt
G1 X112.549 Y77.680 E14.63070 ; skirt
G1 X111.893 Y77.744 E14.64987 ; skirt
G1 X111.172 Y77.772 E14.67088 ; skirt
G1 X25.572 Y77.772 E17.16162 ; skirt
G1 X24.850 Y77.744 E17.18263 ; skirt
G1 X24.195 Y77.680 E17.20181 ; skirt
G1 X23.160 Y77.493 E17.23239 ; skirt
G1 X22.149 Y77.207 E17.26298 ; skirt
G1 X21.171 Y76.822 E17.29356 ; skirt
G1 X20.815 Y76.654 E17.30500 ; skirt
G1 X19.898 Y76.142 E17.33557 ; skirt
G1 X19.350 Y75.776 E17.35474 ; skirt
G1 X18.525 Y75.124 E17.38533 ; skirt
G1 X18.235 Y74.861 E17.39675 ; skirt
G1 X17.505 Y74.104 E17.42733 ; skirt
G1 X16.853 Y73.279 E17.45794 ; skirt
G1 X16.285 Y72.395 E17.48851 ; skirt
G1 X15.975 Y71.814 E17.50768 ; skirt
G1 X15.807 Y71.459 E17.51910 ; skirt
G1 X15.422 Y70.480 E17.54969 ; skirt
G1 X15.136 Y69.469 E17.58027 ; skirt
G1 X15.007 Y68.823 E17.59944 ; skirt
G1 X14.950 Y68.434 E17.61089 ; skirt
G1 X14.866 Y67.387 E17.64146 ; skirt
G1 X14.858 Y32.757 E18.64908 ; skirt
G1 X14.885 Y32.036 E18.67010 ; skirt
G1 X15.007 Y30.992 E18.70068 ; skirt
G1 X15.231 Y29.965 E18.73126 ; skirt
G1 X15.555 Y28.965 E18.76185 ; skirt
G1 X15.975 Y28.001 E18.79245 ; skirt
G1 X16.487 Y27.083 E18.82302 ; skirt
G1 X17.087 Y26.220 E18.85361 ; skirt
G1 X17.769 Y25.420 E18.88419 ; skirt
G1 X18.235 Y24.954 E18.90336 ; skirt
G1 X18.988 Y24.311 E18.93220 ; skirt
G1 X19.247 Y24.559 F6600.000 ; move to first skirt point
G1 F2100
G1 X20.081 Y23.979 E18.96177 ; skirt
G1 X20.968 Y23.483 E18.99133 ; skirt
G1 X21.899 Y23.076 E19.02090 ; skirt
G1 X22.270 Y22.944 E19.03234 ; skirt
G1 X23.237 Y22.670 E19.06160 ; skirt
G1 X23.859 Y22.546 E19.08004 ; skirt
G1 X24.868 Y22.427 E19.10961 ; skirt
G1 X25.572 Y22.400 E19.13011 ; skirt
G1 X111.172 Y22.400 E21.62085 ; skirt
G1 X111.876 Y22.427 E21.64136 ; skirt
G1 X112.497 Y22.488 E21.65950 ; skirt
G1 X113.497 Y22.668 E21.68907 ; skirt
G1 X114.475 Y22.944 E21.71863 ; skirt
G1 X115.421 Y23.315 E21.74820 ; skirt
G1 X115.775 Y23.483 E21.75962 ; skirt
G1 X116.655 Y23.974 E21.78893 ; skirt
G1 X117.497 Y24.560 E21.81878 ; skirt
G1 X118.269 Y25.219 E21.84832 ; skirt
G1 X118.710 Y25.659 E21.86646 ; skirt
G1 X118.974 Y25.951 E21.87789 ; skirt
G1 X119.604 Y26.748 E21.90746 ; skirt
G1 X120.152 Y27.604 E21.93703 ; skirt
G1 X120.446 Y28.154 E21.95518 ; skirt
G1 X120.853 Y29.085 E21.98474 ; skirt
G1 X120.985 Y29.455 E21.99619 ; skirt
G1 X121.262 Y30.432 E22.02573 ; skirt
G1 X121.441 Y31.433 E22.05531 ; skirt
G1 X121.502 Y32.053 E22.07344 ; skirt
G1 X121.529 Y32.757 E22.09395 ; skirt
G1 X121.529 Y67.057 E23.09199 ; skirt
G1 X121.502 Y67.762 E23.11250 ; skirt
G1 X121.441 Y68.382 E23.13064 ; skirt
G1 X121.262 Y69.382 E23.16021 ; skirt
G1 X120.985 Y70.360 E23.18978 ; skirt
G1 X120.614 Y71.306 E23.21935 ; skirt
G1 X120.446 Y71.661 E23.23077 ; skirt
G1 X119.955 Y72.539 E23.26005 ; skirt
G1 X119.370 Y73.382 E23.28991 ; skirt
G1 X118.974 Y73.864 E23.30805 ; skirt
G1 X118.270 Y74.596 E23.33760 ; skirt
G1 X117.979 Y74.860 E23.34904 ; skirt
G1 X117.181 Y75.489 E23.37860 ; skirt
G1 X116.334 Y76.033 E23.40788 ; skirt
G1 X115.775 Y76.332 E23.42633 ; skirt
G1 X115.421 Y76.500 E23.43775 ; skirt
G1 X114.475 Y76.871 E23.46731 ; skirt
G1 X113.497 Y77.147 E23.49688 ; skirt
G1 X112.497 Y77.326 E23.52644 ; skirt
G1 X111.876 Y77.388 E23.54460 ; skirt
G1 X111.172 Y77.414 E23.56510 ; skirt
G1 X25.572 Y77.414 E26.05584 ; skirt
G1 X24.868 Y77.388 E26.07634 ; skirt
G1 X24.247 Y77.326 E26.09449 ; skirt
G1 X23.247 Y77.147 E26.12406 ; skirt
G1 X22.269 Y76.871 E26.15362 ; skirt
G1 X21.323 Y76.500 E26.18319 ; skirt
G1 X20.968 Y76.332 E26.19463 ; skirt
G1 X20.081 Y75.836 E26.22418 ; skirt
G1 X19.563 Y75.489 E26.24233 ; skirt
G1 X18.765 Y74.860 E26.27189 ; skirt
G1 X18.474 Y74.596 E26.28332 ; skirt
G1 X17.770 Y73.864 E26.31288 ; skirt
G1 X17.140 Y73.066 E26.34247 ; skirt
G1 X16.592 Y72.211 E26.37202 ; skirt
G1 X16.297 Y71.661 E26.39017 ; skirt
G1 X16.130 Y71.306 E26.40159 ; skirt
G1 X15.759 Y70.360 E26.43116 ; skirt
G1 X15.482 Y69.382 E26.46072 ; skirt
G1 X15.360 Y68.771 E26.47887 ; skirt
G1 X15.303 Y68.382 E26.49032 ; skirt
G1 X15.222 Y67.369 E26.51987 ; skirt
G1 X15.215 Y32.757 E27.52698 ; skirt
G1 X15.242 Y32.053 E27.54749 ; skirt
G1 X15.360 Y31.044 E27.57705 ; skirt
G1 X15.578 Y30.052 E27.60662 ; skirt
G1 X15.891 Y29.085 E27.63618 ; skirt
G1 X16.298 Y28.153 E27.66576 ; skirt
G1 X16.793 Y27.267 E27.69531 ; skirt
G1 X17.374 Y26.433 E27.72489 ; skirt
G1 X18.033 Y25.660 E27.75444 ; skirt
G1 X18.474 Y25.219 E27.77260 ; skirt
G1 X19.201 Y24.597 E27.80042 ; skirt
G1 E26.80042 F1800.00000 ; retract extruder 0
G92 E0 ; reset extrusion distance
G1 X27.384 Y62.775 F6600.000 ; move to first perimeter point
G1 E1.00000 F1800.00000 ; unretract extruder 0
G1 F900
G1 X27.715 Y62.749 E1.00964 ; perimeter
G1 X28.059 Y62.775 E1.01968 ; perimeter
G1 X28.389 Y62.854 E1.02957 ; perimeter
G1 X28.702 Y62.984 E1.03943 ; perimeter
G1 X28.991 Y63.161 E1.04928 ; perimeter
G1 X29.248 Y63.381 E1.05914 ; perimeter
G1 X29.468 Y63.638 E1.06900 ; perimeter
G1 X29.645 Y63.927 E1.07885 ; perimeter
G1 X29.775 Y64.240 E1.08871 ; perimeter
G1 X29.854 Y64.570 E1.09857 ; perimeter
G1 X29.881 Y64.907 E1.10842 ; perimeter
G1 X29.854 Y65.245 E1.11828 ; perimeter
G1 X29.775 Y65.574 E1.12814 ; perimeter
G1 X29.645 Y65.887 E1.13799 ; perimeter
G1 X29.468 Y66.176 E1.14785 ; perimeter
G1 X29.248 Y66.434 E1.15771 ; perimeter
G1 X28.991 Y66.654 E1.16757 ; perimeter
G1 X28.702 Y66.831 E1.17742 ; perimeter
G1 X28.389 Y66.961 E1.18728 ; perimeter
G1 X28.060 Y67.040 E1.19714 ; perimeter
G1 X27.722 Y67.066 E1.20699 ; perimeter
G1 X27.384 Y67.040 E1.21685 ; perimeter
G1 X27.055 Y66.961 E1.22671 ; perimeter
G1 X26.742 Y66.831 E1.23656 ; perimeter
G1 X26.459 Y66.658 E1.24621 ; perimeter
G1 X26.196 Y66.435 E1.25624 ; perimeter
G1 X25.975 Y66.176 E1.26613 ; perimeter
G1 X25.798 Y65.887 E1.27599 ; perimeter
G1 X25.669 Y65.574 E1.28585 ; perimeter
G1 X25.590 Y65.245 E1.29570 ; perimeter
G1 X25.563 Y64.907 E1.30556 ; perimeter
G1 X25.590 Y64.570 E1.31542 ; perimeter
G1 X25.669 Y64.240 E1.32527 ; perimeter
G1 X25.798 Y63.927 E1.33513 ; perimeter
G1 X25.975 Y63.638 E1.34499 ; perimeter
G1 X26.195 Y63.381 E1.35484 ; perimeter
G1 X26.453 Y63.161 E1.36470 ; perimeter
G1 X26.742 Y62.984 E1.37456 ; perimeter
G1 X27.055 Y62.854 E1.38442 ; perimeter
G1 X27.326 Y62.789 E1.39253 ; perimeter
G1 X27.409 Y63.136 F6600.000 ; move to first perimeter point
G1 F900
G1 X27.715 Y63.107 E1.40147 ; perimeter
G1 X28.003 Y63.129 E1.40987 ; perimeter
G1 X28.278 Y63.195 E1.41811 ; perimeter
G1 X28.539 Y63.303 E1.42633 ; perimeter
G1 X28.780 Y63.451 E1.43455 ; perimeter
G1 X28.995 Y63.634 E1.44277 ; perimeter
G1 X29.179 Y63.849 E1.45099 ; perimeter
G1 X29.326 Y64.090 E1.45921 ; perimeter
G1 X29.434 Y64.351 E1.46744 ; perimeter
G1 X29.500 Y64.626 E1.47566 ; perimeter
G1 X29.522 Y64.907 E1.48388 ; perimeter
G1 X29.500 Y65.189 E1.49210 ; perimeter
G1 X29.434 Y65.464 E1.50032 ; perimeter
G1 X29.326 Y65.725 E1.50854 ; perimeter
G1 X29.179 Y65.966 E1.51676 ; perimeter
G1 X28.995 Y66.181 E1.52499 ; perimeter
G1 X28.780 Y66.364 E1.53321 ; perimeter
G1 X28.539 Y66.512 E1.54143 ; perimeter
G1 X28.278 Y66.620 E1.54965 ; perimeter
G1 X28.004 Y66.686 E1.55787 ; perimeter
G1 X27.722 Y66.708 E1.56609 ; perimeter
G1 X27.440 Y66.686 E1.57432 ; perimeter
G1 X27.165 Y66.620 E1.58254 ; perimeter
G1 X26.904 Y66.512 E1.59076 ; perimeter
G1 X26.669 Y66.368 E1.59879 ; perimeter
G1 X26.449 Y66.181 E1.60719 ; perimeter
G1 X26.265 Y65.966 E1.61542 ; perimeter
G1 X26.118 Y65.725 E1.62364 ; perimeter
G1 X26.009 Y65.464 E1.63186 ; perimeter
G1 X25.943 Y65.189 E1.64008 ; perimeter
G1 X25.921 Y64.907 E1.64831 ; perimeter
G1 X25.943 Y64.626 E1.65653 ; perimeter
G1 X26.009 Y64.351 E1.66475 ; perimeter
G1 X26.118 Y64.090 E1.67297 ; perimeter
G1 X26.265 Y63.849 E1.68119 ; perimeter
G1 X26.449 Y63.634 E1.68941 ; perimeter
G1 X26.664 Y63.451 E1.69764 ; perimeter
G1 X26.904 Y63.303 E1.70586 ; perimeter
G1 X27.165 Y63.195 E1.71408 ; perimeter
G1 X27.351 Y63.150 E1.71963 ; perimeter
G1 X27.417 Y63.106 F6600.000 ; move inwards before travel
G1 E0.71963 F1800.00000 ; retract extruder 0
G92 E0 ; reset extrusion distance
G1 X27.722 Y37.066 F6600.000 ; move to first perimeter point
G1 E1.00000 F1800.00000 ; unretract extruder 0
G1 F900
G1 X27.384 Y37.040 E1.00986 ; perimeter
G1 X27.055 Y36.961 E1.01971 ; perimeter
G1 X26.742 Y36.831 E1.02957 ; perimeter
G1 X26.453 Y36.654 E1.03943 ; perimeter
G1 X26.195 Y36.434 E1.04928 ; perimeter
G1 X25.975 Y36.176 E1.05914 ; perimeter
G1 X25.798 Y35.887 E1.06900 ; perimeter
G1 X25.672 Y35.581 E1.07864 ; perimeter
G1 X25.590 Y35.246 E1.08868 ; perimeter
G1 X25.563 Y34.907 E1.09857 ; perimeter
G1 X25.590 Y34.570 E1.10842 ; perimeter
G1 X25.669 Y34.240 E1.11828 ; perimeter
G1 X25.798 Y33.927 E1.12814 ; perimeter
G1 X25.975 Y33.638 E1.13799 ; perimeter
G1 X26.195 Y33.381 E1.14785 ; perimeter
G1 X26.453 Y33.161 E1.15771 ; perimeter
G1 X26.742 Y32.984 E1.16757 ; perimeter
G1 X27.055 Y32.854 E1.17742 ; perimeter
G1 X27.384 Y32.775 E1.18728 ; perimeter
G1 X27.715 Y32.749 E1.19692 ; perimeter
G1 X28.059 Y32.775 E1.20696 ; perimeter
G1 X28.389 Y32.854 E1.21685 ; perimeter
G1 X28.702 Y32.984 E1.22670 ; perimeter
G1 X28.991 Y33.161 E1.23656 ; perimeter
G1 X29.248 Y33.381 E1.24642 ; perimeter
G1 X29.468 Y33.638 E1.25628 ; perimeter
G1 X29.645 Y33.927 E1.26613 ; perimeter
G1 X29.775 Y34.240 E1.27599 ; perimeter
G1 X29.854 Y34.570 E1.28585 ; perimeter
G1 X29.881 Y34.907 E1.29570 ; perimeter
G1 X29.854 Y35.245 E1.30556 ; perimeter
G1 X29.775 Y35.574 E1.31542 ; perimeter
G1 X29.645 Y35.887 E1.32527 ; perimeter
G1 X29.468 Y36.176 E1.33513 ; perimeter
G1 X29.248 Y36.434 E1.34499 ; perimeter
G1 X28.991 Y36.654 E1.35484 ; perimeter
G1 X28.708 Y36.827 E1.36449 ; perimeter
G1 X28.390 Y36.960 E1.37453 ; perimeter
G1 X28.060 Y37.040 E1.38441 ; perimeter
G1 X27.782 Y37.061 E1.39252 ; perimeter
G1 X27.754 Y36.706 F6600.000 ; move to first perimeter point
G1 F900
G1 X27.440 Y36.686 E1.40166 ; perimeter
G1 X27.165 Y36.620 E1.40989 ; perimeter
G1 X26.904 Y36.512 E1.41811 ; perimeter
G1 X26.664 Y36.364 E1.42633 ; perimeter
G1 X26.449 Y36.181 E1.43455 ; perimeter
G1 X26.265 Y35.966 E1.44277 ; perimeter
G1 X26.118 Y35.725 E1.45099 ; perimeter
