; generated by Slic3r 1.3.0-dev on 2018-07-21 at 19:03:37

; external perimeters extrusion width = 0.44mm (2.38mm^3/s)
; perimeters extrusion width = 0.56mm (6.20mm^3/s)
; infill extrusion width = 0.50mm (6.40mm^3/s)
; solid infill extrusion width = 0.56mm (6.20mm^3/s)
; top infill extrusion width = 0.56mm (3.10mm^3/s)

M190 S70 ; set bed temperature and wait for it to be reached
M104 S219 ; set temperature
G28 ; home all axes
G1 Z5 F5000 ; lift nozzle
G1 X0 Y0 F5000 ;

; Filament gcode

; Filament gcode

M109 S219 ; set temperature and wait for it to be reached
G21 ; set units to millimeters
G90 ; use absolute coordinates
M82 ; use absolute distances for extrusion
G92 E0 ; reset extrusion distance
M106 S255 ; enable fan
;LAYER:
G1 E-1.00000 F1800.00000 ; retract extruder 0
G92 E0 ; reset extrusion distance
G1 Z0.200 F6600.000 ; move to next layer (0)
G1 X15.684 Y18.676 F6600.000 ; move to first skirt point
G1 E1.00000 F1800.00000 ; unretract extruder 0
G1 F2100
G1 X17.452 Y17.097 E1.06896 ; skirt
G1 X19.642 Y16.191 E1.13792 ; skirt
G1 X21.211 Y16.015 E1.18387 ; skirt
G1 X60.211 Y16.015 E2.31867 ; skirt
G1 X62.548 Y16.412 E2.38764 ; skirt
G1 X64.622 Y17.559 E2.45660 ; skirt
G1 X66.201 Y19.327 E2.52556 ; skirt
G1 X67.106 Y21.517 E2.59452 ; skirt
G1 X67.283 Y23.086 E2.64047 ; skirt
G1 X67.283 Y50.086 E3.42610 ; skirt
G1 X66.886 Y52.423 E3.49506 ; skirt
G1 X65.739 Y54.497 E3.56402 ; skirt
G1 X63.971 Y56.075 E3.63299 ; skirt
G1 X61.781 Y56.981 E3.70195 ; skirt
G1 X60.211 Y57.158 E3.74790 ; skirt
G1 X21.211 Y57.158 E4.88270 ; skirt
G1 X18.875 Y56.760 E4.95166 ; skirt
G1 X16.801 Y55.614 E5.02062 ; skirt
G1 X15.222 Y53.846 E5.08958 ; skirt
G1 X14.317 Y51.656 E5.15854 ; skirt
G1 X14.140 Y50.086 E5.20449 ; skirt
G1 X14.140 Y23.086 E5.99013 ; skirt
G1 X14.537 Y20.750 E6.05909 ; skirt
G1 X15.655 Y18.728 E6.12630 ; skirt
G1 X16.038 Y18.806 F6600.000 ; move to first skirt point
G1 F2100
G1 X17.794 Y17.307 E6.19349 ; skirt
G1 X19.954 Y16.491 E6.26067 ; skirt
G1 X21.211 Y16.372 E6.29741 ; skirt
G1 X60.211 Y16.372 E7.43222 ; skirt
G1 X62.486 Y16.769 E7.49940 ; skirt
G1 X64.492 Y17.913 E7.56659 ; skirt
G1 X65.991 Y19.669 E7.63377 ; skirt
G1 X66.807 Y21.829 E7.70096 ; skirt
G1 X66.926 Y23.086 E7.73770 ; skirt
G1 X66.926 Y50.086 E8.52333 ; skirt
G1 X66.529 Y52.361 E8.59051 ; skirt
G1 X65.384 Y54.366 E8.65770 ; skirt
G1 X63.629 Y55.866 E8.72489 ; skirt
G1 X61.469 Y56.682 E8.79207 ; skirt
G1 X60.211 Y56.801 E8.82881 ; skirt
G1 X21.211 Y56.801 E9.96361 ; skirt
G1 X18.937 Y56.403 E10.03080 ; skirt
G1 X16.931 Y55.259 E10.09798 ; skirt
G1 X15.432 Y53.503 E10.16517 ; skirt
G1 X14.616 Y51.343 E10.23235 ; skirt
G1 X14.497 Y50.086 E10.26910 ; skirt
G1 X14.497 Y23.086 E11.05473 ; skirt
G1 X14.894 Y20.812 E11.12191 ; skirt
G1 X16.009 Y18.858 E11.18735 ; skirt
G1 X16.392 Y18.941 F6600.000 ; move to first skirt point
G1 F2100
G1 X18.135 Y17.523 E11.25271 ; skirt
G1 X21.211 Y16.729 E11.34516 ; skirt
G1 X60.211 Y16.729 E12.47996 ; skirt
G1 X62.422 Y17.126 E12.54533 ; skirt
G1 X64.357 Y18.267 E12.61069 ; skirt
G1 X65.775 Y20.010 E12.67605 ; skirt
G1 X66.569 Y23.086 E12.76850 ; skirt
G1 X66.569 Y50.086 E13.55413 ; skirt
G1 X66.172 Y52.297 E13.61949 ; skirt
G1 X65.031 Y54.232 E13.68485 ; skirt
G1 X63.288 Y55.649 E13.75021 ; skirt
G1 X60.211 Y56.443 E13.84266 ; skirt
G1 X21.211 Y56.443 E14.97746 ; skirt
G1 X19.001 Y56.047 E15.04282 ; skirt
G1 X17.066 Y54.906 E15.10818 ; skirt
G1 X15.648 Y53.163 E15.17354 ; skirt
G1 X14.854 Y50.086 E15.26600 ; skirt
G1 X14.854 Y23.086 E16.05163 ; skirt
G1 X15.251 Y20.875 E16.11699 ; skirt
G1 X16.362 Y18.992 E16.18060 ; skirt
G1 E15.18060 F1800.00000 ; retract extruder 0
G92 E0 ; reset extrusion distance
G1 X54.458 Y43.146 F6600.000 ; move to first perimeter point
G1 E1.00000 F1800.00000 ; unretract extruder 0
G1 F900
G1 X54.644 Y42.937 E1.00813 ; perimeter
G1 X54.998 Y42.655 E1.02131 ; perimeter
G1 X55.237 Y42.522 E1.02927 ; perimeter
G1 X55.679 Y42.368 E1.04288 ; perimeter
G1 X56.137 Y42.316 E1.05631 ; perimeter
G1 X56.416 Y42.330 E1.06443 ; perimeter
G1 X56.873 Y42.435 E1.07808 ; perimeter
G1 X57.309 Y42.645 E1.09216 ; perimeter
G1 X57.688 Y42.946 E1.10624 ; perimeter
G1 X57.989 Y43.325 E1.12031 ; perimeter
G1 X58.199 Y43.761 E1.13439 ; perimeter
G1 X58.303 Y44.217 E1.14801 ; perimeter
G1 X58.319 Y44.490 E1.15597 ; perimeter
G1 X58.266 Y44.955 E1.16958 ; perimeter
G1 X58.114 Y45.390 E1.18300 ; perimeter
G1 X57.980 Y45.635 E1.19113 ; perimeter
G1 X57.688 Y46.002 E1.20478 ; perimeter
G1 X57.322 Y46.294 E1.21840 ; perimeter
G1 X57.082 Y46.426 E1.22635 ; perimeter
G1 X56.641 Y46.581 E1.23997 ; perimeter
G1 X56.160 Y46.635 E1.25405 ; perimeter
G1 X55.679 Y46.581 E1.26812 ; perimeter
G1 X55.244 Y46.429 E1.28155 ; perimeter
G1 X54.999 Y46.294 E1.28967 ; perimeter
G1 X54.632 Y46.002 E1.30332 ; perimeter
G1 X54.340 Y45.636 E1.31694 ; perimeter
G1 X54.208 Y45.397 E1.32489 ; perimeter
G1 X54.053 Y44.955 E1.33851 ; perimeter
G1 X53.999 Y44.474 E1.35259 ; perimeter
G1 X54.053 Y43.993 E1.36667 ; perimeter
G1 X54.213 Y43.537 E1.38074 ; perimeter
G1 X54.426 Y43.197 E1.39242 ; perimeter
G1 X54.729 Y43.387 F6600.000 ; move to first perimeter point
G1 F900
G1 X54.890 Y43.197 E1.39966 ; perimeter
G1 X55.197 Y42.953 E1.41108 ; perimeter
G1 X55.384 Y42.849 E1.41728 ; perimeter
G1 X55.759 Y42.718 E1.42885 ; perimeter
G1 X56.148 Y42.674 E1.44025 ; perimeter
G1 X56.367 Y42.685 E1.44662 ; perimeter
G1 X56.755 Y42.774 E1.45820 ; perimeter
G1 X57.118 Y42.949 E1.46993 ; perimeter
G1 X57.434 Y43.200 E1.48167 ; perimeter
G1 X57.685 Y43.516 E1.49341 ; perimeter
G1 X57.860 Y43.879 E1.50514 ; perimeter
G1 X57.949 Y44.267 E1.51672 ; perimeter
G1 X57.960 Y44.480 E1.52292 ; perimeter
G1 X57.916 Y44.875 E1.53449 ; perimeter
G1 X57.787 Y45.245 E1.54588 ; perimeter
G1 X57.682 Y45.437 E1.55225 ; perimeter
G1 X57.434 Y45.748 E1.56384 ; perimeter
G1 X57.123 Y45.996 E1.57541 ; perimeter
G1 X56.936 Y46.099 E1.58161 ; perimeter
G1 X56.561 Y46.230 E1.59318 ; perimeter
G1 X56.160 Y46.275 E1.60492 ; perimeter
G1 X55.759 Y46.230 E1.61665 ; perimeter
G1 X55.389 Y46.101 E1.62805 ; perimeter
G1 X55.197 Y45.996 E1.63442 ; perimeter
G1 X54.886 Y45.748 E1.64600 ; perimeter
G1 X54.638 Y45.437 E1.65757 ; perimeter
G1 X54.535 Y45.250 E1.66377 ; perimeter
G1 X54.404 Y44.875 E1.67535 ; perimeter
G1 X54.359 Y44.474 E1.68708 ; perimeter
G1 X54.404 Y44.073 E1.69882 ; perimeter
G1 X54.537 Y43.693 E1.71055 ; perimeter
G1 X54.697 Y43.437 E1.71932 ; perimeter
G1 X54.714 Y43.360 F6600.000 ; move inwards before travel
G1 E0.71932 F1800.00000 ; retract extruder 0
G92 E0 ; reset extrusion distance
G1 X55.903 Y30.618 F6600.000 ; move to first perimeter point
G1 E1.00000 F1800.00000 ; unretract extruder 0
G1 F900
G1 X55.446 Y30.514 E1.01362 ; perimeter
G1 X55.010 Y30.304 E1.02770 ; perimeter
G1 X54.632 Y30.002 E1.04177 ; perimeter
G1 X54.340 Y29.636 E1.05539 ; perimeter
G1 X54.208 Y29.397 E1.06335 ; perimeter
G1 X54.053 Y28.955 E1.07697 ; perimeter
G1 X53.999 Y28.474 E1.09105 ; perimeter
G1 X54.053 Y27.993 E1.10512 ; perimeter
G1 X54.213 Y27.537 E1.11919 ; perimeter
G1 X54.458 Y27.146 E1.13262 ; perimeter
G1 X54.644 Y26.937 E1.14075 ; perimeter
G1 X54.998 Y26.655 E1.15394 ; perimeter
G1 X55.237 Y26.522 E1.16189 ; perimeter
G1 X55.679 Y26.368 E1.17550 ; perimeter
G1 X56.137 Y26.316 E1.18893 ; perimeter
G1 X56.416 Y26.330 E1.19705 ; perimeter
G1 X56.873 Y26.435 E1.21070 ; perimeter
G1 X57.309 Y26.645 E1.22478 ; perimeter
G1 X57.688 Y26.946 E1.23886 ; perimeter
G1 X57.989 Y27.325 E1.25294 ; perimeter
G1 X58.199 Y27.761 E1.26701 ; perimeter
G1 X58.303 Y28.217 E1.28063 ; perimeter
G1 X58.319 Y28.490 E1.28859 ; perimeter
G1 X58.266 Y28.955 E1.30220 ; perimeter
G1 X58.114 Y29.390 E1.31563 ; perimeter
G1 X57.980 Y29.635 E1.32375 ; perimeter
G1 X57.688 Y30.002 E1.33740 ; perimeter
G1 X57.309 Y30.304 E1.35148 ; perimeter
G1 X56.873 Y30.514 E1.36555 ; perimeter
G1 X56.417 Y30.618 E1.37917 ; perimeter
G1 X56.160 Y30.632 E1.38667 ; perimeter
G1 X55.962 Y30.621 E1.39242 ; perimeter
G1 X55.982 Y30.265 F6600.000 ; move to first perimeter point
G1 F900
G1 X55.565 Y30.174 E1.40485 ; perimeter
G1 X55.202 Y29.999 E1.41659 ; perimeter
G1 X54.886 Y29.748 E1.42833 ; perimeter
G1 X54.638 Y29.437 E1.43990 ; perimeter
G1 X54.535 Y29.250 E1.44610 ; perimeter
G1 X54.404 Y28.875 E1.45767 ; perimeter
G1 X54.359 Y28.474 E1.46941 ; perimeter
G1 X54.404 Y28.073 E1.48115 ; perimeter
G1 X54.537 Y27.693 E1.49288 ; perimeter
G1 X54.745 Y27.361 E1.50428 ; perimeter
G1 X54.890 Y27.197 E1.51065 ; perimeter
G1 X55.197 Y26.953 E1.52206 ; perimeter
G1 X55.384 Y26.849 E1.52827 ; perimeter
G1 X55.759 Y26.718 E1.53984 ; perimeter
G1 X56.148 Y26.674 E1.55123 ; perimeter
G1 X56.367 Y26.685 E1.55760 ; perimeter
G1 X56.755 Y26.774 E1.56918 ; perimeter
G1 X57.118 Y26.949 E1.58092 ; perimeter
G1 X57.434 Y27.200 E1.59266 ; perimeter
G1 X57.685 Y27.516 E1.60439 ; perimeter
G1 X57.860 Y27.879 E1.61613 ; perimeter
G1 X57.949 Y28.267 E1.62770 ; perimeter
G1 X57.960 Y28.480 E1.63391 ; perimeter
G1 X57.916 Y28.875 E1.64547 ; perimeter
G1 X57.787 Y29.245 E1.65687 ; perimeter
G1 X57.682 Y29.437 E1.66324 ; perimeter
G1 X57.434 Y29.748 E1.67482 ; perimeter
G1 X57.118 Y29.999 E1.68656 ; perimeter
G1 X56.755 Y30.174 E1.69830 ; perimeter
G1 X56.367 Y30.263 E1.70987 ; perimeter
G1 X56.042 Y30.268 E1.71932 ; perimeter
G1 X55.967 Y30.290 F6600.000 ; move inwards before travel
G1 E0.71932 F1800.00000 ; retract extruder 0
G92 E0 ; reset extrusion distance
G1 X33.273 Y49.529 F6600.000 ; move to first perimeter point
G1 E1.00000 F1800.00000 ; unretract extruder 0
G1 F1800
G1 X21.769 Y49.529 E1.33476 ; perimeter
G1 X21.769 Y41.143 E1.57876 ; perimeter
G1 X26.947 Y41.143 E1.72944 ; perimeter
G1 X27.093 Y41.392 E1.73784 ; perimeter
G1 X27.588 Y42.099 E1.76295 ; perimeter
G1 X27.878 Y42.454 E1.77628 ; perimeter
G1 X28.474 Y43.085 E1.80153 ; perimeter
G1 X29.131 Y43.657 E1.82688 ; perimeter
G1 X29.499 Y43.932 E1.84026 ; perimeter
G1 X30.223 Y44.396 E1.86527 ; perimeter
G1 X30.628 Y44.615 E1.87865 ; perimeter
G1 X31.417 Y44.970 E1.90385 ; perimeter
G1 X32.244 Y45.249 E1.92925 ; perimeter
G1 X32.690 Y45.364 E1.94263 ; perimeter
G1 X33.535 Y45.517 E1.96764 ; perimeter
G1 X33.993 Y45.565 E1.98102 ; perimeter
G1 X34.858 Y45.593 E2.00622 ; perimeter
G1 X35.729 Y45.536 E2.03162 ; perimeter
G1 X36.185 Y45.472 E2.04501 ; perimeter
G1 X37.032 Y45.290 E2.07021 ; perimeter
G1 X37.869 Y45.022 E2.09579 ; perimeter
G1 X38.677 Y44.674 E2.12139 ; perimeter
G1 X39.447 Y44.249 E2.14698 ; perimeter
G1 X40.166 Y43.754 E2.17237 ; perimeter
G1 X40.525 Y43.466 E2.18576 ; perimeter
G1 X41.161 Y42.875 E2.21103 ; perimeter
G1 X41.742 Y42.218 E2.23655 ; perimeter
G1 X42.253 Y41.512 E2.26191 ; perimeter
G1 X42.495 Y41.119 E2.27534 ; perimeter
G1 X42.895 Y40.351 E2.30055 ; perimeter
G1 X43.224 Y39.533 E2.32619 ; perimeter
G1 X43.468 Y38.697 E2.35153 ; perimeter
G1 X43.564 Y38.249 E2.36486 ; perimeter
G1 X43.684 Y37.387 E2.39019 ; perimeter
G1 X43.719 Y36.510 E2.41572 ; perimeter
G1 X43.668 Y35.631 E2.44135 ; perimeter
G1 X43.534 Y34.770 E2.46669 ; perimeter
G1 X43.430 Y34.324 E2.48002 ; perimeter
G1 X43.171 Y33.493 E2.50536 ; perimeter
G1 X42.830 Y32.684 E2.53088 ; perimeter
G1 X42.412 Y31.913 E2.55640 ; perimeter
G1 X41.923 Y31.189 E2.58183 ; perimeter
G1 X41.639 Y30.829 E2.59518 ; perimeter
G1 X41.053 Y30.189 E2.62044 ; perimeter
G1 X40.399 Y29.601 E2.64602 ; perimeter
G1 X39.690 Y29.080 E2.67162 ; perimeter
G1 X38.935 Y28.630 E2.69721 ; perimeter
G1 X38.145 Y28.259 E2.72261 ; perimeter
G1 X37.715 Y28.095 E2.73599 ; perimeter
G1 X36.886 Y27.845 E2.76119 ; perimeter
G1 X36.029 Y27.676 E2.78659 ; perimeter
G1 X35.573 Y27.620 E2.79997 ; perimeter
G1 X34.708 Y27.579 E2.82517 ; perimeter
G1 X33.836 Y27.622 E2.85057 ; perimeter
G1 X33.379 Y27.678 E2.86396 ; perimeter
G1 X32.530 Y27.847 E2.88915 ; perimeter
G1 X31.694 Y28.099 E2.91455 ; perimeter
G1 X31.265 Y28.264 E2.92794 ; perimeter
G1 X30.482 Y28.633 E2.95313 ; perimeter
G1 X29.732 Y29.080 E2.97853 ; perimeter
G1 X29.355 Y29.345 E2.99192 ; perimeter
G1 X28.684 Y29.892 E3.01712 ; perimeter
G1 X28.061 Y30.511 E3.04267 ; perimeter
G1 X27.499 Y31.190 E3.06833 ; perimeter
G1 X27.013 Y31.910 E3.09360 ; perimeter
G1 X26.768 Y32.338 E3.10796 ; perimeter
G1 X26.723 Y32.475 E3.11215 ; perimeter
G1 X21.769 Y32.467 E3.25631 ; perimeter
G1 X21.769 Y23.643 E3.51307 ; perimeter
G1 X59.654 Y23.643 E4.61545 ; perimeter
G1 X59.654 Y49.529 E5.36866 ; perimeter
G1 X33.333 Y49.529 E6.13454 ; perimeter
G1 X33.333 Y49.886 F6600.000 ; move to first perimeter point
G1 F900
G1 X21.411 Y49.886 E6.48143 ; perimeter
G1 X21.411 Y40.786 E6.74622 ; perimeter
G1 X27.151 Y40.786 E6.91323 ; perimeter
G1 X27.394 Y41.199 E6.92715 ; perimeter
G1 X27.873 Y41.884 E6.95147 ; perimeter
G1 X28.146 Y42.219 E6.96405 ; perimeter
G1 X28.721 Y42.827 E6.98841 ; perimeter
G1 X29.355 Y43.379 E7.01287 ; perimeter
G1 X29.703 Y43.639 E7.02549 ; perimeter
G1 X30.404 Y44.088 E7.04973 ; perimeter
G1 X30.786 Y44.294 E7.06236 ; perimeter
G1 X31.548 Y44.637 E7.08667 ; perimeter
G1 X32.346 Y44.907 E7.11117 ; perimeter
G1 X32.766 Y45.015 E7.12380 ; perimeter
G1 X33.586 Y45.163 E7.14804 ; perimeter
G1 X34.017 Y45.209 E7.16067 ; perimeter
G1 X34.853 Y45.235 E7.18498 ; perimeter
G1 X35.693 Y45.181 E7.20948 ; perimeter
G1 X36.123 Y45.121 E7.22211 ; perimeter
G1 X36.940 Y44.945 E7.24642 ; perimeter
G1 X37.744 Y44.688 E7.27100 ; perimeter
G1 X38.520 Y44.353 E7.29557 ; perimeter
G1 X39.259 Y43.945 E7.32015 ; perimeter
G1 X39.953 Y43.468 E7.34465 ; perimeter
G1 X40.291 Y43.196 E7.35728 ; perimeter
G1 X40.905 Y42.625 E7.38166 ; perimeter
G1 X41.463 Y41.994 E7.40617 ; perimeter
G1 X41.956 Y41.313 E7.43064 ; perimeter
G1 X42.184 Y40.943 E7.44330 ; perimeter
G1 X42.570 Y40.201 E7.46763 ; perimeter
G1 X42.886 Y39.416 E7.49225 ; perimeter
G1 X43.122 Y38.610 E7.51670 ; perimeter
G1 X43.212 Y38.187 E7.52927 ; perimeter
G1 X43.327 Y37.355 E7.55371 ; perimeter
G1 X43.361 Y36.513 E7.57822 ; perimeter
G1 X43.313 Y35.669 E7.60284 ; perimeter
G1 X43.183 Y34.839 E7.62729 ; perimeter
G1 X43.085 Y34.418 E7.63986 ; perimeter
G1 X42.836 Y33.615 E7.66431 ; perimeter
G1 X42.508 Y32.839 E7.68882 ; perimeter
G1 X42.107 Y32.099 E7.71333 ; perimeter
G1 X41.635 Y31.400 E7.73786 ; perimeter
G1 X41.367 Y31.061 E7.75045 ; perimeter
G1 X40.801 Y30.443 E7.77482 ; perimeter
G1 X40.173 Y29.878 E7.79939 ; perimeter
G1 X39.493 Y29.378 E7.82397 ; perimeter
G1 X38.767 Y28.946 E7.84854 ; perimeter
G1 X38.005 Y28.588 E7.87305 ; perimeter
G1 X37.599 Y28.433 E7.88568 ; perimeter
G1 X36.799 Y28.192 E7.90999 ; perimeter
G1 X35.973 Y28.029 E7.93449 ; perimeter
G1 X35.542 Y27.976 E7.94712 ; perimeter
G1 X34.708 Y27.936 E7.97143 ; perimeter
G1 X33.867 Y27.978 E7.99594 ; perimeter
G1 X33.436 Y28.031 E8.00856 ; perimeter
G1 X32.617 Y28.194 E8.03287 ; perimeter
G1 X31.810 Y28.437 E8.05738 ; perimeter
G1 X31.405 Y28.593 E8.07000 ; perimeter
G1 X30.650 Y28.949 E8.09432 ; perimeter
G1 X29.926 Y29.380 E8.11882 ; perimeter
G1 X29.571 Y29.630 E8.13145 ; perimeter
G1 X28.924 Y30.158 E8.15576 ; perimeter
G1 X28.325 Y30.752 E8.18030 ; perimeter
G1 X27.785 Y31.404 E8.20494 ; perimeter
G1 X27.316 Y32.099 E8.22933 ; perimeter
G1 X27.096 Y32.484 E8.24223 ; perimeter
G1 X26.982 Y32.833 E8.25291 ; perimeter
G1 X21.411 Y32.824 E8.41500 ; perimeter
G1 X21.411 Y23.286 E8.69252 ; perimeter
G1 X60.011 Y23.286 E9.81568 ; perimeter
G1 X60.011 Y49.886 E10.58968 ; perimeter
G1 X33.393 Y49.886 E11.36420 ; perimeter
G1 X33.051 Y49.603 F6600.000 ; move inwards before travel
G1 E10.36420 F1800.00000 ; retract extruder 0
G92 E0 ; reset extrusion distance
G1 X42.705 Y41.435 F6600.000 ; move to first infill point
G1 E1.00000 F1800.00000 ; unretract extruder 0
G1 F1800
G1 X54.197 Y29.944 E1.47463 ; infill
G1 X54.080 Y29.797 E1.48010 ; infill
G1 X53.993 Y29.640 E1.48534 ; infill
G1 X43.240 Y40.394 E1.92948 ; infill
G1 X43.559 Y39.568 E1.95533 ; infill
G1 X53.842 Y29.285 E2.38005 ; infill
G1 X53.741 Y28.997 E2.38896 ; infill
G1 X53.729 Y28.891 E2.39208 ; infill
G1 X43.768 Y38.852 E2.80349 ; infill
G1 X43.896 Y38.217 E2.82241 ; infill
G1 X53.678 Y28.435 E3.22641 ; infill
